!!!!SEGMENT: pl-kj--bj-muz-10207-iii-1_zarebski-juliusz--reverie-op-5-no-1.krn
!!!cenid: 18xx:3562
!!!COM: Zarębski, Juliusz
!!!COM-rismid: pe30020631
!!!CDT:
!!!CNT:
!!!OTL: Rêverie op. 5 no. 1
!!!PDT:
!!!AGN: 1881
!!!SMS-siglum: PL-Kj
!!!SMS-shelfmark: BJ Muz. 10207 III 1
!!!SMS-shelfwork: W
!!!SMS-variant:
!!!SMS-altvar:
!!!NIFC-rismid:
!!!URL-scan: https://polona.pl/item/deux-morceaux-en-forme-de-mazurka-reverie-et-passion-pour-piano-a-quatre-mains-op,ODI4MzE5NTg/3/#info:metadata
!!!ONB-nifc:
!!!OMD: Moderato.
!!!key: c
**kern	**kern	**dynam	**kern	**fing	**kern	**dynam
*part2	*part2	*part2	*part1	*part1	*part1	*part1
*staff4	*staff3	*	*staff2	*staff2	*staff1	*
*I"Piano	*I"Piano	*	*I"Piano	*	*I"Piano	*
*I'SECONDO.	*I'SECONDO.	*	*I'PRIMO.	*	*I'PRIMO.	*
*Ipiano	*Ipiano	*	*Ipiano	*	*Ipiano	*
*ICklav	*ICklav	*	*ICklav	*	*ICklav	*
*clefF4	*clefF4	*	*clefG2	*	*clefG2	*
*k[b-e-a-]	*k[b-e-a-]	*	*k[b-e-a-]	*	*k[b-e-a-]	*
*c:	*c:	*	*c:	*	*c:	*
*M3/4	*M3/4	*	*M3/4	*	*M3/4	*
=1	=1	=1	=1	=1	=1	=1
*ped	*	*	*ped	*	*	*
!	!	!	!	!	!LO:TX:b:i:t=sempre rubato	!
!	!	!	!	!	!LO:TX:a:i:t=molto espressivo	!
!	!LO:TX:a:B:t=Moderato.	!	!	!	!LO:TX:a:B:t=Moderato.	!
[2.CC/ [2.C	4r	p	2.r	.	([2g/	p
.	(4G\ 4c 4e-	.	.	.	.	.
.	4E-\) 4G 4c	.	.	.	8.g/L]	.
.	.	.	.	.	16a-/Jk	.
=2	=2	=2	=2	=2	=2	=2
2.CC/] 2.C]	4r	.	2.r	.	[2an/	<
.	(4G\ 4c 4e-	.	.	.	.	.
.	4E-\) 4G 4c	.	.	.	8.a/L]	.
*Xped	*	*	*Xped	*	*	*
.	.	.	.	.	16b-/Jk	.
=3	=3	=3	=3	=3	=3	=3
*ped	*	*	*ped	*	*	*
2.CC/ 2.C	4r	.	2.r	.	2bn\	.
.	(4A-\ 4d 4f	.	.	.	.	.
.	4F\) 4A- 4d	.	.	.	[4aa-^\	[
*Xped	*	*	*Xped	*	*	*
=4	=4	=4	=4	=4	=4	=4
*ped	*	*	*ped	*	*	*
2.CC/ 2.C	4r	.	2.r	.	8aa-\L]	>
.	.	.	.	.	8gg\	.
!	!LO:TX:b:i:t=poco rit.	!	!	!	!	!
.	(4F\ 4A- 4d	.	.	.	8ff\	.
!	!	!	!	!	!LO:TX:b:i:t=poco rit.	!
.	.	.	.	.	8dd\	.
.	4A-\) 4d 4f	.	.	.	8bn~\	.
*Xped	*	*	*Xped	*	*	*
.	.	.	.	.	8a-\J)	]
=5	=5	=5	=5	=5	=5	=5
*ped	*	*	*ped	*	*	*
!	!LO:TX:a:i:t=a tempo	!	!	!	!LO:TX:a:i:t=a tempo	!
[2.CC/ [2.C	4r	.	2.r	.	([2g/	<
.	(4G\ 4c 4f	.	.	.	.	.
.	4G\) 4c 4e-	.	.	.	8.g/L]	.
.	.	.	.	.	16a-/Jk	.
=6	=6	=6	=6	=6	=6	=6
2.CC/] 2.C]	4r	.	2.r	.	[2an/	.
.	(4c\ 4e- 4g	.	.	.	.	.
.	4G\) 4c 4e-	.	.	.	8.a/L]	.
.	.	.	.	.	16b-/Jk	.
*Xped	*	*	*Xped	*	*	*
!	!	!	!LO:LB:g=original	!	!LO:LB:g=original	!
=7	=7	=7	=7	=7	=7	=7
*ped	*	*	*ped	*	*	*
2.BBB-/ 2.BB-	4r	.	2.r	.	2cc\	.
.	(4c\ 4e- 4a-	.	.	.	.	.
.	4F\) 4c 4e-	.	.	.	[4bb-^\	[
!LO:LB:g=original	!LO:LB:g=original	!	!	!	!	!
=8	=8	=8	=8	=8	=8	=8
*^	*	*	*	*	*	*
4r	2.BBB-\ 2.BB-	4r	.	2.r;	.	8bb-\L]	>
.	.	.	.	.	.	8aa-\	.
2F^>;>/	.	(4.c^>;>\ 4.e- 4.a-	.	.	.	8ff\	.
.	.	.	.	.	.	8cc\	.
.	.	.	.	.	.	8ee-;\	.
*Xped	*	*	*	*Xped	*	*	*
.	.	8d\)	.	.	.	8dd\J)	]
*v	*v	*	*	*	*	*	*
=9	=9	=9	=9	=9	=9	=9
*	*	*^	*	*	*	*
*ped	*	*	*	*ped	*	*	*
!	!	!	!	!	!	!LO:TX:b:t=cresc._ _ _:problem:ext=ud:dynamics with extention lines	!LO:HP:t=cresc._ _ _:ext=ud
2.EE-/ 2.E-	4r	.	.	2.r	.	([2b-\	<
!	!LO:TX:b:t=cresc._ _ _:problem:ext=ud:dynamics with extention lines	!	!LO:HP:t=cresc._ _ _:ext=ud	!	!	!	!
.	(4B-\ 4e- 4a-	>	<	.	.	.	.
.	4B-\) 4e- 4g	]	.	.	.	8.b-\L]	.
*Xped	*	*	*	*Xped	*	*	*
.	.	.	.	.	.	16bn\Jk	.
*	*clefG2	*	*	*	*	*	*
=10	=10	=10	=10	=10	=10	=10	=10
*ped	*	*	*	*ped	*	*	*
2.EE-/ 2.E-	4r	.	.	2.r	.	[2cc\	.
.	(4B-/ 4e- 4an	>	.	.	.	.	.
.	4B-/) 4e- 4g	]	.	.	.	8.cc\L]	.
*Xped	*	*	*	*Xped	*	*	*
.	.	.	[	.	.	16cc#X\Jk	.
*	*	*v	*v	*	*	*	*
=11	=11	=11	=11	=11	=11	=11
*ped	*	*	*ped	*	*	*
2.DD/ 2.D	4r	f	4r	.	2dd\	.
.	(4B-/ 4e- 4an	.	4r	.	.	.
*Xped	*	*	*Xped	*	*	*
.	4B-/) 4e- 4g	.	[4dd\	.	[4ddd\	[ f
=12	=12	=12	=12	=12	=12	=12
*ped	*	*	*ped	*	*	*
2.CC/ 2.C	4r	.	4dd\]	.	4ddd\]	.
.	(4An^>/ 4d 4g	.	4dd\	.	4ddd\	.
*Xped	*	*	*Xped	*	*	*
.	4A^>/) 4d 4f#X	.	4dd\	.	4ddd\)	.
=13	=13	=13	=13	=13	=13	=13
*ped	*	*	*ped	*	*	*
[2.BBB-/ [2.BB-	4r	.	2.dd^\	.	(2.ddd^\	.
.	(4B-/ 4d 4g	.	.	.	.	.
*Xped	*	*	*Xped	*	*	*
.	4G/) 4B- 4d	.	.	.	.	.
!	!	!	!LO:LB:g=original	!	!LO:LB:g=original	!
=14	=14	=14	=14	=14	=14	=14
*ped	*	*	*ped	*	*	*
!	!	!LO:HP:t=dim.	!	!	!	!LO:HP:t=dim.
2.BBB-/] 2.BB-]	4r	>	4b-\	.	4bb-\	>
.	(4B-/ 4d 4fn	.	4r	.	4.dd\	.
.	4F/) 4A- 4d	.	4r	.	.	.
*Xped	*	*	*Xped	*	*	*
.	.	.	.	.	8ee-\	.
*	*clefF4	*	*	*	*	*
!LO:LB:g=original	!LO:LB:g=original	!	!	!	!	!
=15	=15	=15	=15	=15	=15	=15
*ped	*	*	*ped	*	*	*
2.AAAn/ 2.AAn	4r	.	2.r	.	2.ff\	.
.	(4An\ 4d 4f	.	.	.	.	.
*Xped	*	*	*Xped	*	*	*
.	4F\) 4A 4d	.	.	.	.	.
=16	=16	=16	=16	=16	=16	=16
*ped	*	*	*	*	*	*
2.GGG/ 2.GG	4r	.	2.r	.	4dd\	.
.	(4G\ 4Bn 4d	.	.	.	4.f/	.
.	4F\) 4G 4B	.	.	.	.	.
*Xped	*	*	*	*	*	*
.	.	.	.	.	8f#X/)	.
=17	=17	=17	=17	=17	=17	=17
[2.CC/ [2.C	4r	p	2.r	.	([2g/	p
.	(4G\ 4c 4e-	.	.	.	.	.
.	4E-\) 4G 4c	.	.	.	8.g/L]	<
.	.	.	.	.	16a-/Jk	.
=18	=18	=18	=18	=18	=18	=18
2.CC/] 2.C]	4r	.	2.r	.	[2an/	.
.	(4G\ 4c 4e-	.	.	.	.	.
.	4E-\) 4G 4c	.	.	.	8.a/L]	.
.	.	.	.	.	16b-/Jk	.
=19	=19	=19	=19	=19	=19	=19
2.CC/ 2.C	4r	.	2.r	.	2bn\	.
.	(4A-\ 4d 4f	.	.	.	.	.
.	4F\) 4A- 4d	.	.	.	[4aa-^>\	[
=20	=20	=20	=20	=20	=20	=20
2.CC/ 2.C	4r	.	2.r	.	8aa-\L]	.
.	.	.	.	.	8gg\	.
!	!LO:TX:b:i:t=poco rit.	!	!	!	!	!
.	(4F\ 4A- 4d	.	.	.	8ff\	.
!	!	!	!	!	!LO:TX:b:i:t=poco rit.	!
.	.	.	.	.	8dd\	.
.	4A-\) 4d 4f	.	.	.	8bn\	.
.	.	.	.	.	8a-\J)	.
!	!	!	!LO:LB:g=original	!	!LO:LB:g=original	!
=21	=21	=21	=21	=21	=21	=21
!	!LO:TX:a:i:t=a tempo	!	!	!	!LO:TX:a:i:t=a tempo	!
[2.CC/ [2.C	4r	.	2.r	.	([2g/	<
.	(4G\ 4c 4f	.	.	.	.	.
.	4G\) 4c 4e-	.	.	.	8.g/L]	.
.	.	.	.	.	16a-/Jk	.
!LO:LB:g=original	!LO:LB:g=original	!	!	!	!	!
=22	=22	=22	=22	=22	=22	=22
2.CC/] 2.C]	4r	.	2.r	.	[2an/	.
.	(4c\ 4e- 4g	.	.	.	.	.
.	4G\) 4c 4e-	.	.	.	8.a/L]	.
.	.	.	.	.	16b-/Jk	.
=23	=23	=23	=23	=23	=23	=23
2.BBB-/ 2.BB-	4r	.	2.r	.	2cc\	.
.	(4c\ 4e- 4a-	.	.	.	.	.
.	4F\) 4c 4e-	.	.	.	[4bb-^\	[
=24	=24	=24	=24	=24	=24	=24
*^	*	*	*	*	*	*
4r	2.BBB-\ 2.BB-	4r	.	2.r;	.	8bb-\L]	>
.	.	.	.	.	.	8aa-\	.
2F^>;>/	.	(4.c^>;>\ 4.e- 4.a-	.	.	.	8ff\	.
.	.	.	.	.	.	8cc\	.
.	.	.	.	.	.	8ee-;\	.
.	.	8d\)	.	.	.	8dd\J)	]
*v	*v	*	*	*	*	*	*
=25	=25	=25	=25	=25	=25	=25
*	*	*^	*	*	*	*
!	!	!	!LO:HP:t=cresc.	!	!	!LO:TX:b:t=cresc._ _ _:problem:ext=ud:dynamics with extention lines	!LO:HP:t=cresc._ _ _:ext=ud
2.EE-/ 2.E-	4r	.	<	2.r	.	([2b-\	<
.	(4B-\ 4e- 4a-	>	.	.	.	.	.
.	4B-\) 4e- 4g	]	.	.	.	8.b-\L]	.
.	.	.	.	.	.	16bn\Jk	.
*	*	*v	*v	*	*	*	*
*	*clefG2	*	*	*	*	*
=26	=26	=26	=26	=26	=26	=26
2.EE-/ 2.E-	4r	.	2.r	.	[2cc\	.
.	(>4B-/ 4e- 4an	>	.	.	.	.
.	4B-/) 4e- 4g	]	.	.	8.cc\L]	.
.	.	.	.	.	16cc#X\Jk	.
=27	=27	=27	=27	=27	=27	=27
2.DD/ 2.D	4r	f	4r	.	2dd\	.
.	(>4B-/ 4e- 4an	.	4r	.	.	.
.	4B-/) 4e- 4g	.	[4dd\	.	[4ddd\	[ f
!	!	!	!LO:LB:g=original	!	!LO:LB:g=original	!
=28	=28	=28	=28	=28	=28	=28
2.CC/ 2.C	4r	.	4dd\]	.	4ddd\]	<
.	(>4An/ 4d 4g	.	4dd\	.	4ddd\	.
.	4A/) 4d 4f#X	.	4dd\	.	4ddd\)	[
*	*clefF4	*	*	*	*	*
!LO:LB:g=original	!LO:LB:g=original	!	!	!	!	!
=29	=29	=29	=29	=29	=29	=29
2.BBBn/ 2.BBn	4r	.	(>2.dd^\	.	(2.ddd^\	.
.	(4G\ 4d	.	.	.	.	.
.	4G\) 4d 4g	.	.	.	.	.
=30	=30	=30	=30	=30	=30	=30
*ped	*	*	*ped	*	*	*
2EEn/ 2En	4r	<	4bn\	.	4bbn\	<
.	4G\ 4Bn	.	4g/	.	4bn\	.
*Xped	*	*	*Xped	*	*	*
4EE/ 4E	4G\ 4c	[	4g/	.	4cc\	[
=31	=31	=31	=31	=31	=31	=31
4DD/ 4D	4G\ 4Bn	.	4d/)	.	4dd\)	.
*ped	*	*	*ped	*	*	*
2CC^>/ 2C	2G^\	.	(<4d^>/ 4f#X	.	(4dd^\ 4ff#X	.
*Xped	*	*	*Xped	*	*	*
.	.	.	4c/ 4en	.	4cc\ 4een	.
=32	=32	=32	=32	=32	=32	=32
*ped	*	*	*ped	*	*	*
!	!	!LO:HP:t=dim.	!	!	!	!LO:HP:t=dim.
(4BBBn/ 4BBn	(4G\	>	4d/	.	4g\ 4dd	>
*ped	*	*	*ped	*	*	*
4EEn/ 4En	4G\ 4Bn	.	4en/	.	4g/	.
*ped	*	*	*ped	*	*	*
4DD/) 4D	4An\ 4c	.	4f#X/)	.	4an/)	.
=33	=33	=33	=33	=33	=33	=33
.	.	.	.	.	(16qqg/LL	p
.	.	.	.	.	16qqan/JJ	>
[2.GGG/ [2.GG	4Bn\)	p	2.r	.	(2.bn/)	.
.	(4B^>\ 4d	>	.	.	.	.
.	8G\) 8B	]	.	.	.	.
.	8r	.	.	.	.	.
=34	=34	=34	=34	=34	=34	=34
2.GGG/_ 2.GG_	4r	.	2.r	.	2.g/)	.
.	(4c^>\ 4en	>	.	.	.	]
.	8Bn\) 8d	]	.	.	.	.
.	8r	.	.	.	.	.
=35	=35	=35	=35	=35	=35	=35
!	!	!	!	!	!LO:TX:b:i:t=1	!
2.GGG/] 2.GG]	4r	.	2.r	.	2.r	.
.	(4An^>\ 4c	>	.	.	.	.
.	8G\) 8Bn	]	.	.	.	.
.	8r	.	.	.	.	.
!LO:PB:g=original	!LO:PB:g=original	!	!LO:PB:g=original	!	!LO:PB:g=original	!
=36	=36	=36	=36	=36	=36	=36
2.GGG/ 2.GG	4r	.	4r	.	[>2g/	.
.	(4G\ 4Bn	>	4r	.	.	<
.	8A-X\) 8c	]	8.r	.	8.g\L]	.
.	8r	.	.	.	.	.
.	.	.	16g/	.	16gg\Jk	.
=37	=37	=37	=37	=37	=37	=37
!	!	!	!	!	!LO:TX:a:B:t=Un poco più animato.	!
2.AAA-X/ 2.AA-X	4r	.	(<[2g/	.	([2gg\	.
.	(4A-\ 4c	>	.	.	.	.
.	8An\) 8c#X	]	8.g/L]	.	8.gg\L]	[ mf
.	8r	.	.	.	.	.
.	.	.	16f#X/Jk	.	16ff#X\Jk	.
=38	=38	=38	=38	=38	=38	=38
2.AAAn/ 2.AAn	4r	.	[2fnX/	.	[2ffnX\	.
.	(4An\ 4c#X	>	.	.	.	.
.	8A-X\) 8cn	]	8.f/L]	.	8.ff\L]	.
.	8r	.	.	.	.	.
.	.	.	16en/Jk	.	16een\Jk	.
=39	=39	=39	=39	=39	=39	=39
[2.BBB-/ [2.BB-	4r	.	4e-X'/)	.	4ee-X'\)	.
.	4A-^\ 4c	<	(<[2d^>/	.	([2dd\	.
.	4A-\ 4c-X	[	.	.	.	.
=40	=40	=40	=40	=40	=40	=40
2.BBB-/] 2.BB-]	(4A-\ 4B-	<	4d/]	.	4dd\]	<
.	4A-^\ 4B- 4e-	.	4f/	.	4ff\	.
.	4A-\) 4B- 4d	[	4g/	.	4gg\	[
=41	=41	=41	=41	=41	=41	=41
*	*	*^	*	*	*	*
!	!	!	!	!	!	!LO:TX:b:t=cresc._ _ _:problem:ext=ud:dynamics with extention lines	!LO:HP:t=cresc._ _ _:ext=ud
2.CC/ 2.C	4r	.	.	[2b-/	.	[2bb-\	<
!	!LO:TX:b:t=cresc._ _ _:problem:ext=ud:dynamics with extention lines	!	!LO:HP:t=cresc._ _ _:ext=ud	!	!	!	!
.	(4c\ 4en	>	<	.	.	.	.
.	8d-X\) 8f	]	.	8.b-/L]	.	8.bb-\L]	.
.	8r	.	.	.	.	.	.
.	.	.	.	16an/Jk	.	16aan\Jk	.
=42	=42	=42	=42	=42	=42	=42	=42
2.DD-X/ 2.D-X	4r	.	.	[2a-X/	.	[2aa-X\	.
.	(4d-X\ 4f	>	.	.	.	.	.
.	8c\) 8en	]	.	8.a-/L]	.	8.aa-\L]	.
.	8r	.	.	.	.	.	.
.	.	.	[	16g/Jk)	.	16gg\Jk)	[
*	*	*v	*v	*	*	*	*
!LO:LB:g=original	!LO:LB:g=original	!	!LO:LB:g=original	!	!LO:LB:g=original	!
=43	=43	=43	=43	=43	=43	=43
[2.DDn/ [2.Dn	4r	<	(2g/	.	(2gg\	<
.	(>4c\ 4en	.	.	.	.	.
.	4c\ 4e-X	.	[4f#X/	.	[4ff#X\	.
=44	=44	=44	=44	=44	=44	=44
2.DD/] 2.D]	4c\ 4d	.	4f#/]	.	4ff#\]	.
.	4c\ 4d 4g	[	4b-\	.	4bb-\	.
.	4c\) 4d 4f#X	.	4cc\)	.	4ccc\)	[
=45	=45	=45	=45	=45	=45	=45
!	!LO:TX:a:i:t=sempre più animato	!	!	!	!LO:TX:a:i:t=sempre più animato	!
2.BBB-/ 2.BB-	4D\ 4G 4d	f <	([2dd^\	.	([2gg^\ [2ddd	f
!	!LO:TX:b:i:t=appassionato	!	!	!	!	!
.	4An^\ 4an	[	.	.	.	.
!	!	!	!	!	!LO:TX:b:i:t=appassionato	!
.	4G^\ 4g	.	8.dd\L]	.	8.gg\L] 8.ddd]	.
.	.	.	16cc\Jk	.	16ccc\Jk	.
=46	=46	=46	=46	=46	=46	=46
2.CC/ 2.C	2c^\	<	4b-\	.	4ee-\ 4bb-	.
.	.	.	4an/	.	4aan\	.
.	4E-\ 4e-	[	4a-X/	.	4aa-X\	.
=47	=47	=47	=47	=47	=47	=47
[2.DD/	2E-^\ 2e-	.	4g'/)	.	4cc'\) 4gg	.
.	.	.	([2f#X^>/	.	([2ff#X^\	.
.	4D\ 4d	.	.	.	.	.
=48	=48	=48	=48	=48	=48	=48
2.DD/]	4C#X\ 4c#X	.	4f#/]	.	4ff#\]	<
.	2D^\ 2d	.	4b-\	.	4bb-\	.
.	.	.	4ccn\)	.	4cccn\)	[
=49	=49	=49	=49	=49	=49	=49
2.BBB-/ 2.BB-	4D^\ 4G 4d	<	([2dd^>\	.	([2gg^\ [2ddd	.
.	4An^\ 4an	[	.	.	.	.
.	4G^\ 4g	.	8.dd\L]	.	8.gg\L] 8.ddd]	.
.	.	.	16cc\Jk	.	16ccc\Jk	.
=50	=50	=50	=50	=50	=50	=50
2.BBB-/ 2.BB-	2c^\	.	4b-\	.	4ee-\ 4bb-	.
.	.	.	4an/	.	4aan\	.
.	4E-\ 4e-	.	4a-X/	.	4aa-X\	.
!LO:LB:g=original	!LO:LB:g=original	!	!LO:LB:g=original	!	!LO:LB:g=original	!
=51	=51	=51	=51	=51	=51	=51
[2.DD/	2E-^\ 2e-	.	4g'/)	.	4cc'\) 4gg	.
.	.	.	([2f#X^>/	.	([2ff#X^\	.
.	4D\ 4d	.	.	.	.	.
=52	=52	=52	=52	=52	=52	=52
2.DD/]	4C#X\ 4c#X	.	4f#/]	.	4ff#\]	<
.	2D^\ 2d	.	4b-\	.	4bb-\	.
.	.	.	4ccn\)	.	4cccn\)	[
=53	=53	=53	=53	=53	=53	=53
2.BBB-/ 2.BB-	4D\ 4G 4d	.	(2g^>\ 2dd	.	(2gg^\ 2ddd	.
.	4E-^\ 4e-	.	.	.	.	.
.	4D\ 4d	.	4b-\	.	4bb-\	.
=54	=54	=54	=54	=54	=54	=54
2.CC/ 2.C	2D^\ 2F#X 2B- 2d	.	4f#X/	.	4ff#X\	<
.	.	.	4b-\	.	4bb-\	.
.	4D\ 4F# 4c 4d	.	4cc\)	.	4ccc\)	[
=55	=55	=55	=55	=55	=55	=55
2.BBB-/ 2.BB-	4D\ 4G 4d	.	(2g^\ 2dd	.	(2gg^\ 2ddd	.
.	4E-^\ 4e-	.	.	.	.	.
.	4D\ 4d	.	4b-\	.	4bb-\	.
=56	=56	=56	=56	=56	=56	=56
2.CC/ 2.C	2D^\ 2F#X 2B- 2d	.	4f#X/	.	4ff#X\	<
.	.	.	4b-\	.	4bb-\	.
.	4D\ 4F# 4c 4d	.	4cc\)	.	4ccc\)	[
=57	=57	=57	=57	=57	=57	=57
!	!	!	!	!	!LO:TX:b:i:t=sempre più	!
2.BBB-/ 2.BB-	4r	.	(2dd^\	.	(2gg^\ 2ddd	.
.	(4An^\ 4d 4an	.	.	.	.	.
.	4G\) 4g	.	4b-\)	.	4bb-\)	.
=58	=58	=58	=58	=58	=58	=58
!	!	!	!	!	!	!LO:DY:b
2.BBB-/ 2.BB-	4r	.	(2dd^\	.	(2gg^\ 2ddd	f
.	(4G^\ 4d 4g	.	.	.	.	.
.	4F#X\) 4f#X	.	4b-\)	.	4bb-\)	.
!LO:LB:g=original	!LO:LB:g=original	!	!	!	!	!
=59	=59	=59	=59	=59	=59	=59
2.BBB-/ 2.BB-	4r	.	(2dd^\	.	(2gg^\ 2ddd	.
.	(4F#X^\ 4d 4f#X	.	.	.	.	.
.	4Fn\) 4fn	.	4b-\)	.	4bb-\)	.
!	!	!	!LO:LB:g=original	!	!LO:LB:g=original	!
=60	=60	=60	=60	=60	=60	=60
4BBB-^>/ 4BB-	4D^>\ 4B- 4d	.	4b-^\ 4dd	.	4bb-^\ 4ddd	<
4GGG^>/ 4GG	4E-^>\ 4B- 4e-	.	4b-^\ 4ee-	.	4bb-^\ 4eee-	.
4GGG-X^>/ 4GG-X	4En^>\ 4B- 4en	.	4b-^\ 4een	.	4bb-^\ 4eeen	[
=61	=61	=61	=61	=61	=61	=61
!	!LO:TX:b:i:t=marcatissimo	!	!	!	!	!
2FFF^>/ 2FF	2F^>\ 2B- 2f	ff	2b-^\ 2ff	.	2bb-^\ 2fff	ff
!	!	!	!	!	!LO:TX:b:i:t=marcatissimo	!
!	!LO:TX:a:B:t=Molto animato.	!	!	!	!LO:TX:a:B:t=Molto animato.	!
4GGGn/ 4GGn	4En\ 4G 4en	.	4b-\ 4een	.	4bb-\ 4eeen	.
=62	=62	=62	=62	=62	=62	=62
2.AAA-/ 2.AA-	4E-X^>\ 4G 4e-X	.	4cc\ 4ee-X	.	4ccc\ 4eee-X	.
.	4E-^>\ 4A- 4d 4e-	.	4a-\ 4dd	.	4aa-\ 4ddd	.
.	4E-^>\ 4A- 4d-X 4e-	.	4a-\ 4dd-X	.	4aa-\ 4ddd-X	.
=63	=63	=63	=63	=63	=63	=63
2.AAAn/ 2.AAn	2F#X^>\ 2c 2dn	.	2f#X^>/ 2cc	.	2ff#X^\ 2ccc	.
.	4Bn^>\ 4d	.	4bn/	.	4bbn\	.
=64	=64	=64	=64	=64	=64	=64
2.BBB-/ 2.BB-	4B-^>\ 4d	.	4g/ 4b-X	.	4gg\ 4bb-X	.
.	4An^>\ 4d	.	4an/	.	4aan\	.
.	4A-X^>\ 4d	.	4a-X/	.	4aa-X\	.
=65	=65	=65	=65	=65	=65	=65
2.BBBn/ 2.BBn	2G\ 2d	.	2g^>/	.	2dd^\ 2gg	.
.	4f#X^>\	.	4g^>/	.	4ff#X\	.
=66	=66	=66	=66	=66	=66	=66
2.CC/ 2.C	4G^>\ 4c 4fn	.	4g^>/	.	4cc\ 4ffn	.
.	4en^>\	.	4g^>/	.	4een\	.
.	4e-X^>\	.	4g^>/	.	4ee-X\	.
!LO:LB:g=original	!LO:LB:g=original	!	!LO:LB:g=original	!	!LO:LB:g=original	!
=67	=67	=67	=67	=67	=67	=67
*	*^	*	*	*	*	*
2.DD/ 2.D	2d^/	2.F#X\	.	2.f#X^>/	.	2dd^>\	.
.	4c#X/	.	.	.	.	4cc#X\	.
*	*v	*v	*	*	*	*	*
=68	=68	=68	=68	=68	=68	=68
[2.EE-/ [2.E-	4G\ 4cn	.	2g/	.	4ccn\	.
.	4B-\	.	.	.	4b-\	.
.	4An\	.	4r	.	4an/	.
=69	=69	=69	=69	=69	=69	=69
(<2EE-/] 2E-]	(2G\ 2B-	.	[2.e-^>/ [2.g	.	2.r	.
4DD/ 4D	4d\	.	.	.	.	.
=70	=70	=70	=70	=70	=70	=70
!	!LO:TX:b:t=dim._ _ _:problem:ext=ud:dynamics with extention lines	!LO:HP:t=dim._ _ _:ext=ud	!	!	!LO:TX:b:t=dim._ _ _:problem:ext=ud:dynamics with extention lines	!LO:HP:t=dim._ _ _:ext=ud
2CC/ 2C	2c\	>	4e-/] 4g]	.	4r	>
.	.	.	N(>4e-/ 4g	.	4r	.
4BBB-/) 4BB-	4B-\)	.	4d/ 4g	.	4dd\N)	.
=71	=71	=71	=71	=71	=71	=71
(<2EE-/ 2E-	(2G\ 2B-	.	[2.e-^>/ [2.g	.	2.r	.
4DD/ 4D	4d\	.	.	.	.	.
=72	=72	=72	=72	=72	=72	=72
2CC/ 2C	2c\	.	4e-/] 4g]	.	4r	.
.	.	.	N(>4e-/ 4g	.	4r	.
4BBB-/) 4BB-	4B-\)	.	4d/ 4g	.	4dd\N)	]
=73	=73	=73	=73	=73	=73	=73
*ped	*	*	*ped	*	*	*
(2.AAAn/ 2.AAn	(2.An\	] p	(2.en/	.	(2.cc#X\ 2.een	p <
=74	=74	=74	=74	=74	=74	=74
*ped	*	*	*ped	*	*	*
2.BBB-/ 2.BB-	2.B-\	.	2.d/ 2.g	.	2.dd\ 2.gg	.
=75	=75	=75	=75	=75	=75	=75
*ped	*	*	*ped	*	*	*
2.CC/ 2.C	2.c\)	.	2.e-X/ 2.b-	.	2.ee-X\ 2.bb-	[[
!LO:LB:g=original	!LO:LB:g=original	!	!LO:LB:g=original	!	!LO:LB:g=original	!
=76	=76	=76	=76	=76	=76	=76
*ped	*	*	*ped	*	*	*
[2.DD^>/) [2.D	2.c^\	.	2.e-^>/ 2.f#X 2.b-	.	2.cc^\ 2.ee- 2.ff#X 2.bb-	.
=77	=77	=77	=77	=77	=77	=77
*Xped	*	*	*ped	*	*	*
2DD/] 2D]	2B-\	.	2.d/) 2.g	.	2.b-\) 2.dd 2.gg	.
*ped	*	*	*	*	*	*
[4GGG/ [4GG	[4G\	.	.	.	.	.
=78	=78	=78	=78	=78	=78	=78
2GGG/] 2GG]	2G\]	.	(>2.c^>/ 2.e- 2.f#X 2.b-	.	(2.cc^\ 2.ee- 2.ff#X 2.bb-	>
*ped	*	*	*	*	*	*
[4DD/	[4D\	.	.	.	.	.
=79	=79	=79	=79	=79	=79	=79
2DD/]	2D\]	.	2.B-/) 2.d 2.g	.	2.b-\) 2.dd 2.gg	.
*ped	*	*	*	*	*	*
[4GGG/ [4GG	[4G\	.	.	.	.	]
=80	=80	=80	=80	=80	=80	=80
2GGG/] 2GG]	2G\]	.	(>2.c^>/ 2.e- 2.f#X 2.b-	.	(2.cc^\ 2.ee- 2.ff#X 2.bb-	>
*ped	*	*	*	*	*	*
[4DD/	[4D\	.	.	.	.	.
=81	=81	=81	=81	=81	=81	=81
2DD/]	2D\]	.	2.B-/) 2.d 2.g	.	2.b-\) 2.dd 2.gg	.
*ped	*	*	*	*	*	*
[4GGG/ [4GG	[4G\	pp	.	.	.	]
=82	=82	=82	=82	=82	=82	=82
2.GGG/_ 2.GG_	2.G\_	.	[<2.B-^>/ [>2.d [>2.g	.	[<2.b-^\ [<2.dd [>2.gg [>2.bb-	pp
=83	=83	=83	=83	=83	=83	=83
2GGG/] 2GG]	2G\]	.	2.B-/_< 2.d_> 2.g_>	.	2.b-\_< 2.dd_< 2.gg_> 2.bb-_>	.
(4GGG/ 4GG	(4G\	.	.	.	.	.
=84	=84	=84	=84	=84	=84	=84
2FFF/ 2FF	2F\	.	4B-/] 4d] 4g]	.	4b-\] 4dd] 4gg] 4bb-]	.
.	.	.	4r	.	4r	.
4GGG/ 4GG	4G\	.	4r	.	4r	.
*Xped	*	*	*	*	*	*
!LO:PB:g=original	!LO:PB:g=original	!	!LO:PB:g=original	!	!LO:PB:g=original	!
=85||	=85||	=85||	=85||	=85||	=85||	=85||
*ped	*	*	*	*	*	*
!	!LO:TX:a:B:t=Tranquillo.	!	!	!	!LO:TX:a:B:t=Tranquillo.	!
[2.EE-/) [2.BB-	4E-\) 4B-	pp	4r	.	4r	.
*	*clefG2	*	*	*	*	*
*	*	*	*ped	*	*8va	*
.	(4.e-^>/ 4.b-	.	[2ee-^\ [2bb-	.	(4.eee-\ 4.bbb-	pp
.	8g/	.	.	.	8ggg\	.
=86	=86	=86	=86	=86	=86	=86
2.EE-/_ 2.BB-_	8e-/L	.	4ee-\] 4bb-]	.	8eee-\L	.
.	8f/	.	.	.	8fff\	.
.	8g/	.	4r	.	8ggg\	.
.	8e-/	.	.	.	8eee-\	.
.	8c/	.	4r	.	8ccc\	.
.	8d/J	.	.	.	8ddd\J	.
*	*	*	*	*	*X8va	*
=87	=87	=87	=87	=87	=87	=87
2.EE-/_ 2.BB-_	8e-/L	.	2.r	.	8eee-\L	.
.	8c/	.	.	.	8ccc\	.
.	8B-/	.	.	.	8bb-\	.
.	8G/	.	.	.	8gg\	.
.	8B-/	.	.	.	8bb-\	.
.	8c/J	.	.	.	8ccc\J	.
=88	=88	=88	=88	=88	=88	=88
2EE-/] 2BB-]	8B-/L)	.	2.r	.	8bb-\L)	.
.	16r	.	.	.	16r	.
.	(16c/Jk	.	.	.	(16ccc\Jk	.
*Xped	*	*	*	*	*	*
.	4e-'/)	.	.	.	2eee-^\)	.
*	*	*	*Xped	*	*	*
4AAA-'/ 4AA-	4F'/ 4c-X 4e-	.	.	.	.	.
=89	=89	=89	=89	=89	=89	=89
*ped	*	*	*	*	*	*
4EEE-'/ 4EE-	4G'/ 4B- 4e-	.	4r	.	4r	.
*	*	*	*ped	*	*8va	*
4r	(4.e-^>/ 4.b-	.	(4.ee-^\ 4.bb-	.	(4.eee-^\ 4.bbb-	.
4r	.	.	.	.	.	.
.	8g/	.	8gg\	.	8ggg\	.
=90	=90	=90	=90	=90	=90	=90
2.r	8e-/L	.	8ee-\L	.	8eee-\L	.
.	8f/	.	8ff\	.	8fff\	.
.	8g/	.	8gg\	.	8ggg\	.
.	8e-/	.	8ee-\	.	8eee-\	.
.	8c/	.	8cc\	.	8ccc\	.
.	8d/J	.	8dd\J	.	8ddd\J	.
*	*	*	*	*	*X8va	*
=91	=91	=91	=91	=91	=91	=91
2.r	8e-/L	.	8ee-\L	.	8eee-\L	.
.	8c/	.	8cc\	.	8ccc\	.
.	8B-/	.	8b-\	.	8bb-\	.
.	8G/	.	8g\	.	8gg\	.
.	8B-/	.	8b-\	.	8bb-\	.
.	8c/J	.	8cc\J	.	8ccc\J	.
!LO:LB:g=original	!LO:LB:g=original	!	!LO:LB:g=original	!	!LO:LB:g=original	!
=92	=92	=92	=92	=92	=92	=92
4r	8B-/L)	.	8b-\L)	.	8bb-\L)	.
.	16r	.	16r	.	16r	.
.	(16c/Jk	.	(16cc\Jk	.	(16ccc\Jk	.
*Xped	*	*	*Xped	*	*	*
4r	4e-'/)	.	2ee-^\)	.	2eee-^\)	.
4AAA-/ 4AA-	4F'/ 4c-X 4e-	.	.	.	.	.
=93	=93	=93	=93	=93	=93	=93
*ped	*	*	*	*	*	*
[<2.EEE-/ [>2.EE-	(<8.G/L 8.B-	<	4r	.	2.r	.
.	16e-/Jk	.	.	.	.	.
*	*	*	*ped	*	*	*
.	4f/	.	N(8g\L	.	.	.
.	.	.	8b-\	.	.	.
.	4e-/	[[	8cc\	.	.	.
.	.	.	8ee-\J	.	.	.
=94	=94	=94	=94	=94	=94	=94
2.EEE-/] 2.EE-]	2b-^>/	>	8gg\	.	8r	.
.	.	.	8r	.	8bb-\L	.
.	.	.	4r	.	8ccc\	.
.	.	.	.	.	8eee-\	.
.	4e-/)	]	4r	.	8ggg\	.
*Xped	*	*	*Xped	*	*	*
.	.	.	.	.	8bbb-\JN)	.
=95	=95	=95	=95	=95	=95	=95
*ped	*	*	*ped	*	*8va	*
[2.DDD#X/ [2.DD#X	8.r	.	(2.an\ 2.bn 2.dd#X 2.aan	.	(>2.bbn\ 2.ddd#X 2.fff#X 2.bbbn	>
.	(16An/KL 16Bn	<	.	.	.	.
.	8c#X'/)	.	.	.	.	.
.	16r	.	.	.	.	.
.	(16d#X/L	.	.	.	.	.
.	16en'/J)	.	.	.	.	.
.	16r	.	.	.	.	.
*Xped	*	*	*Xped	*	*	*
.	(>8f#X/J	[	.	.	.	.
=96	=96	=96	=96	=96	=96	=96
*ped	*	*	*	*	*	*
2.EEE-X/] 2.EE-X]	8G'/L) 8B-X 8g	>	2.b-X\) 2.ee-X 2.ggn	.	2.bb-X\) 2.eee-X 2.bbb-X	.
.	16r	.	.	.	.	.
.	16e-X/K	.	.	.	.	]
.	8cn'/	.	.	.	.	.
.	16r	.	.	.	.	.
.	16e-/Jk	.	.	.	.	.
*Xped	*	*	*	*	*	*
!	!LO:TX:a:i:t=ten.	!	!	!	!	!
.	4B-/	]	.	.	.	.
*	*	*	*	*	*X8va	*
=97	=97	=97	=97	=97	=97	=97
*ped	*	*	*	*	*	*
[2.EEE-/ [2.EE-	(8.G/L 8.B-	<	4r	.	2.r	.
.	16e-/Jk	.	.	.	.	.
*	*	*	*ped	*	*	*
.	4f/	.	N&(8g\L	.	.	.
.	.	.	8b-\	.	.	.
.	4e-/	.	8cc\	.	.	.
.	.	.	8ee-\J	.	.	.
=98	=98	=98	=98	=98	=98	=98
2.EEE-/] 2.EE-]	2b-^>/	[ >	8gg\	.	8r	.
.	.	.	8r	.	8bb-\L	.
.	.	.	4r	.	8ccc\	.
.	.	.	.	.	8eee-\	.
.	4e-/)	]	4r	.	8ggg\	.
*Xped	*	*	*Xped	*	*	*
.	.	.	.	.	8bbb-\JN&)	.
*	*clefF4	*	*	*	*	*
!LO:LB:g=original	!LO:LB:g=original	!	!LO:LB:g=original	!	!LO:LB:g=original	!
=99	=99	=99	=99	=99	=99	=99
*ped	*	*	*ped	*	*8va	*
[2.DDD#X/ [2.DD#X	8.r	.	(2.an\ 2.bn 2.dd#X 2.aan	.	(2.bbn\ 2.ddd#X 2.fff#X 2.bbbn	>
.	(16An\KL 16Bn	<	.	.	.	.
.	8c#X'\)	.	.	.	.	.
.	16r	.	.	.	.	.
.	(16d#X\K	.	.	.	.	.
.	8en'\)	.	.	.	.	.
*Xped	*	*	*Xped	*	*	*
.	16r	.	.	.	.	.
.	(16f#X\Jk	[	.	.	.	.
=100	=100	=100	=100	=100	=100	=100
*ped	*	*	*ped	*	*	*
2.EEE-/] 2.EE-]	8G'\L) 8B-X 8g	>	2.b-X\) 2.ee-X 2.ggn	.	2.bb-X\) 2.eee-X 2.bbb-X	.
.	16r	.	.	.	.	.
.	(16e-X\K	.	.	.	.	]
.	8cn'\)	.	.	.	.	.
.	16r	.	.	.	.	.
.	(16e-\Jk	.	.	.	.	.
!	!LO:TX:a:i:t=ten.	!	!	!	!	!
*Xped	*	*	*Xped	*	*	*
.	4B-\)	]	.	.	.	.
*	*	*	*	*	*X8va	*
=101	=101	=101	=101	=101	=101	=101
[2.BBB-^>/ [2.BB-	2.F^\ 2.B- 2.e-	p	(>8a-X/L	.	(8ee-\L 8aa-X	p
!	!	!	!	!	!LO:TX:b:i:t=grazioso	!
.	.	.	8b-/J	.	8b-\J	.
.	.	.	4cc'\)	.	4ccc'\)	.
.	.	.	4a-'/	.	4aa-'\	.
=102	=102	=102	=102	=102	=102	=102
!	!LO:TX:b:i:t=grazioso	!	!	!	!	!
8.BBB-/L] 8.BB-]	8.F\L 8.B- 8.e-	.	2f^>/ 2b-	.	2ee-^>\ 2ff	.
(16C/Jk	(16c\Jk	.	.	.	.	.
4BB-'/)	4B-'\)	.	.	.	.	.
4BB-'/	4G'\ 4B- 4e-	.	4g/ 4b-	.	4ee-\ 4gg	.
=103	=103	=103	=103	=103	=103	=103
[2.BBB-^>/ [2.BB-	2.F^\ 2.B- 2.e-	.	(>8a-/L	.	(>8ee-\L 8aa-	.
.	.	.	8b-/J	.	8b-\J	.
.	.	.	4cc'\)	.	4ccc'\)	.
.	.	.	4a-'/	.	4aa-'\	.
=104	=104	=104	=104	=104	=104	=104
8.BBB-/L] 8.BB-]	8.F\L 8.B- 8.e-	.	2f^>/ 2b-	.	2ee-^\ 2ff	.
(16C/Jk	(16c\Jk	.	.	.	.	.
4BB-'/)	4B-'\)	.	.	.	.	.
4BB-'/	4G'\ 4B- 4e-	.	4g/ 4b-	.	4ee-\ 4gg	.
=105	=105	=105	=105	=105	=105	=105
[2.BBB-^>/ [2.BB-	2.F^\ 2.B- 2.e-	.	(>8a-/L	.	(8ee-\L 8aa-	.
.	.	.	8b-/J	.	8b-\J	.
.	.	.	4cc'\)	.	4ccc'\)	.
.	.	.	4a-'/	.	4aa-'\	.
=106	=106	=106	=106	=106	=106	=106
2BBB-/] 2BB-]	4A-\ 4B- 4e-	<	4f/ 4b-	.	4ee-\ 4ff	<
.	4A-\ 4B- 4e-	.	4g/ 4b-	.	4ee-\ 4gg	.
4BBB-/ 4BB-	4A-\ 4B- 4d	[	4a-/ 4b-	.	4dd\ 4aa-	[
!LO:LB:g=original	!LO:LB:g=original	!	!	!	!	!
=107	=107	=107	=107	=107	=107	=107
2GG/ 2G	(8B-^\L 8f	.	2b-^>\	.	(8ff^>\L 8bb-	.
.	8e-\J)	.	.	.	8ee-\J)	.
.	4e-'\	.	.	.	4ee-'\	.
4FF/ 4F	4A-'\ 4d-X	.	4a-/	.	4dd-X'\ 4aa-	.
!	!	!	!LO:LB:g=original	!	!LO:LB:g=original	!
=108	=108	=108	=108	=108	=108	=108
2EEn^>/ 2En	(8G^\L 8d-X	.	2g^>/	.	(8dd-X^\L 8gg	.
.	8c\J)	.	.	.	8cc\J)	.
.	4c'\	.	.	.	4cc'\	.
4EE-X/ 4E-X	4An'\ 4c	.	4f/	.	4cc'\ 4gg	.
=109	=109	=109	=109	=109	=109	=109
2.DD/ 2.D	2.F\ 2.B- 2.dn	.	(8f/L	.	(8ff\L	.
.	.	.	8g/J	.	8gg\J	.
.	.	.	4b-'/)	.	4bb-'\)	.
.	.	.	4g'/	.	4gg'\	.
=110	=110	=110	=110	=110	=110	=110
2EE-^>/ 2E-	(8An^\L 8d	.	(2f^>/	.	(2ff^\	.
.	8c\J)	.	.	.	.	.
.	4c'\	.	.	.	.	.
4EE-/ 4E-	4A'\ 4c	.	4g/)	.	4gg\)	.
=111	=111	=111	=111	=111	=111	=111
2.DD/ 2.D	2.F\ 2.B- 2.d	.	(8f/L	.	(8ff\L 8fff	.
.	.	.	8g/J	.	8gg\J 8ggg	.
.	.	.	4b-'/)	.	4bb-'\) 4bbb-	.
.	.	.	4g'/	.	4gg'\ 4ggg	.
=112	=112	=112	=112	=112	=112	=112
2EE-^>/ 2E-	(8An^\L 8d	.	(2f^>/	.	(2ff^\ 2fff	.
.	8c\J)	.	.	.	.	.
.	4c'\	.	.	.	.	.
4EE-/ 4E-	4A'\ 4c	.	4g/)	.	4gg\) 4ggg	.
=113	=113	=113	=113	=113	=113	=113
2.DD/ 2.D	2.F\ 2.B- 2.d	.	(8f/L	.	(8ff\L	.
.	.	.	8g/J	.	8gg\J	.
.	.	.	4b-'/)	.	4bb-'\)	.
.	.	.	4g'/	.	4gg'\	.
=114	=114	=114	=114	=114	=114	=114
2CC/ 2C	4F\ 4B- 4e-	<	4f/	.	4ee-\ 4ff	<
.	4F\ 4B- 4e-	.	4g/	.	4ee-\ 4gg	.
4CC/ 4C	4F\ 4An 4e-	[	4an/	.	4ee-\ 4aan	[
=115	=115	=115	=115	=115	=115	=115
2GG/ 2G	(8B-^\L 8f	.	2b-^>/	.	(8ff^\L 8bb-	.
.	8e-\J)	.	.	.	8ee-\J)	.
.	4e-'\	.	.	.	4ee-'\	.
4EE-/ 4E-	4An'\ 4c	.	4g/	.	4cc'\ 4gg	.
!LO:LB:g=original	!LO:LB:g=original	!	!LO:LB:g=original	!	!LO:LB:g=original	!
=116	=116	=116	=116	=116	=116	=116
2DD/ 2D	(8F^\L 8c	.	2f^>/	.	(8cc^>\L 8ff	.
.	8B-\J)	.	.	.	8b-\J)	.
.	4B-'\	.	.	.	4b-'\	.
4CC/ 4C	4F#X'\ 4An	.	4e-/	.	4an'\ 4ee-	.
=117	=117	=117	=117	=117	=117	=117
!	!	!	!	!	!	!LO:HP:b:t=cresc.
2.CC/ 2.C	2.F#X\ 2.An	.	(8d/L	.	(8dd\L	<
.	.	.	8e-/J	.	8ee-\J	.
.	.	.	4f'/)	.	4ff'\)	.
.	.	.	4e-'/	.	4ee-'\	.
=118	=118	=118	=118	=118	=118	=118
2.BBB-/ 2.BB-	(4D\ 4G	<	(2d^>/	.	(2dd^>\	.
.	4An^\	[	.	.	.	.
.	4G\)	.	4g/)	.	4gg\)	.
=119	=119	=119	=119	=119	=119	=119
!	!LO:TX:b:t=cresc._ _ _:problem:ext=ud:dynamics with extention lines	!LO:HP:t=cresc._ _ _:ext=ud	!	!	!	!
2.CC/ 2.C	2.F#X\ 2.An	<	(8d/L	.	(8dd\L	.
.	.	.	8e-/J	.	8ee-\J	.
.	.	.	4f'/)	.	4ff'\)	.
.	.	.	4e-'/	.	4ee-'\	.
=120	=120	=120	=120	=120	=120	=120
2.BBB-/ 2.BB-	(4D\ 4G	.	(2d^>/	.	(2dd^>\	.
.	4An^\	.	.	.	.	.
.	4G\)	.	4g/)	.	4gg\)	.
=121	=121	=121	=121	=121	=121	=121
2.CC/ 2.C	2.F#X\ 2.An	.	(8d/L	.	(8dd\L	f
.	.	.	8e-/J	.	8ee-\J	.
.	.	.	4f'/)	.	4ff'\)	.
.	.	.	4e-'/	.	4ee-'\	.
=122	=122	=122	=122	=122	=122	=122
2.BBB-/ 2.BB-	(4D\ 4G	.	2d/	.	2dd\	.
.	4An^\	.	.	.	.	.
.	4G\)	[	[4dd\	.	[4ddd\	<
=123	=123	=123	=123	=123	=123	=123
4An^>\	4c#X^>\ 4g	ff >	4dd\]	.	4ddd\]	.
4A-X^>\	4cn^>\ 4f#X	.	4dd^>\	.	4ddd^>\	.
4G^>\	4Bn^>\ 4fn	.	4dd^>\	.	4ddd^>\	.
=124	=124	=124	=124	=124	=124	=124
!	!LO:TX:b:i:t=poco rit.	!	!	!	!	!
4G-X\	4B-X\ 4en	.	4dd^>\	.	4ddd^>\	.
4F\	4An\ 4e-X	.	4dd^>\	.	4ddd^>\	.
4En;>\	4A-X;>\ 4d	]	4dd^>;>\	.	4ddd^;>\	[
!LO:PB:g=original	!LO:PB:g=original	!	!LO:PB:g=original	!	!LO:PB:g=original	!
=125||	=125||	=125||	=125||	=125||	=125||	=125||
*k[f#c#g#]	*k[f#c#g#]	*	*k[f#c#g#]	*	*k[f#c#g#]	*
!	!LO:TX:a:i:t=a tempo	!	!	!	!	!
4AAA/ 4AA	4r	p	(8b\L	.	(8bb\L	p
.	.	.	8cc#\J	.	8ccc#\J	.
4r	4E\ 4G# 4d	.	4dd'\)	.	4ddd'\)	.
4r	4G#\ 4d 4e	.	4b'\	.	4bb'\	.
=126	=126	=126	=126	=126	=126	=126
4AAA/ 4AA	4r	.	(2cc#^\	.	(2ccc#^\	.
4r	4E\ 4A 4c#	.	.	.	.	.
4r	4A\ 4c# 4e	.	4ee\)	.	4eee\)	.
=127	=127	=127	=127	=127	=127	=127
4AAA/ 4AA	4r	.	(8b\L	.	(8bb\L	.
.	.	.	8cc#\J	.	8ccc#\J	.
4r	4E\ 4G# 4d	.	4dd'\)	.	4ddd'\)	.
4r	4G#\ 4d 4e	.	4b'\	.	4bb'\	.
=128	=128	=128	=128	=128	=128	=128
4AAA/ 4AA	4r	.	(2cc#^\	.	(2ccc#^\	.
4r	4E\ 4A 4c#	.	.	.	.	.
4r	4A\ 4c# 4e	.	4ee\)	.	4eee\)	.
=129	=129	=129	=129	=129	=129	=129
*ped	*	*	*ped	*	*8va	*
[2.AAA/ [2.AA	4r	<	(8dd\L 8ff#	.	(8ddd\L 8fff#	<
.	.	.	8ee\J 8gg#	.	8eee\J 8ggg#	.
.	4F#\ 4A 4d	.	4ff#'\) 4aa	.	4fff#'\) 4aaa	.
.	4A\ 4d 4f#	.	4dd'\ 4ff#	.	4ddd'\ 4fff#	[[
=130	=130	=130	=130	=130	=130	=130
2.AAA/] 2.AA]	4r	.	[4gg#^\ [4bb	.	[4ggg#^\ [4bbb	.
.	4A\ 4d 4f#	.	8.gg#\L] 8.bb]	.	8.ggg#\L] 8.bbb]	.
.	.	.	16ff#\Jk 16aa	.	16fff#\Jk 16aaa	.
*Xped	*	*	*Xped	*	*	*
.	4d\ 4f# 4a	[	4ff#\ 4aa	.	4fff#\ 4aaa	.
=131	=131	=131	=131	=131	=131	=131
*ped	*	*	*ped	*	*	*
[2.AAA/ [2.AA	4r	>	[4dd^\ [4ff#	.	[4ddd^\ [4fff#	>
.	4G#\ 4d 4e	.	8.dd\L] 8.ff#]	.	8.ddd\L] 8.fff#]	.
.	.	.	16b\Jk 16dd	.	16bb\Jk 16ddd	.
.	4E\ 4G# 4d	.	4b\ 4dd	.	4bb\ 4ddd	.
!LO:LB:g=original	!LO:LB:g=original	!	!	!	!	!
=132	=132	=132	=132	=132	=132	=132
2.AAA/] 2.AA]	4r	.	[4g#^>/ [4b	.	[4gg#^>/ [4bb	.
!	!LO:TX:b:i:t=poco.rit.	!	!	!	!LO:TX:a:i:t=poco rit.	!
.	4G#\ 4d 4e	.	8.g#\L] 8.b]	.	8.gg#\L] 8.bb]	.
.	.	.	16ee\Jk 16gg#	.	16eee\Jk 16ggg#	.
*Xped	*	*	*Xped	*	*	*
.	4E\ 4G# 4d	]	4dd\ 4ff#	.	4ddd\ 4fff#	]
*	*	*	*	*	*X8va	*
!	!	!	!LO:LB:g=original	!	!LO:LB:g=original	!
=133	=133	=133	=133	=133	=133	=133
!	!LO:TX:a:i:t=a tempo	!	!	!	!LO:TX:a:i:t=a tempo	!
4AAA/ 4AA	4r	p	(8b\L	.	(8bb\L	p
.	.	.	8cc#\J	.	8ccc#\J	.
4r	(4G#^<\ 4d 4f#	>	4dd'\)	.	4ddd'\)	.
4r	4E\) 4G# 4d 4e	]	4b'\	.	4bb'\	.
=134	=134	=134	=134	=134	=134	=134
4AAA/ 4AA	4r	.	(2cc#^>\	.	(2ccc#^\	.
4r	(4A^>\ 4c# 4f#	>	.	.	.	.
4r	4E\) 4A 4c# 4e	]	4ee\)	.	4eee\)	.
=135	=135	=135	=135	=135	=135	=135
4AAA/ 4AA	4r	.	(8b\L	.	(8bb\L	.
.	.	.	8cc#\J	.	8ccc#\J	.
4r	(4G#^\ 4d 4f#	>	4dd'\)	.	4ddd'\)	.
4r	4E\) 4G# 4d 4e	]	4b'\	.	4bb'\	.
=136	=136	=136	=136	=136	=136	=136
4AAA/ 4AA	4r	.	(2cc#^>\	.	(2ccc#^\	.
4r	(4A\ 4c# 4f#	>	.	.	.	.
4r	4E\) 4A 4c# 4e	]	4ee\)	.	4eee\)	.
=137	=137	=137	=137	=137	=137	=137
*ped	*	*	*ped	*	*8va	*
!	!	!	!	!	!	!LO:HP:t=cresc.
[2.AAA/ [2.AA	4r	f	(8dd\L 8ff#	.	(8ddd\L 8fff#	<
.	.	.	8ee\J 8gg#	.	8eee\J 8ggg#	.
.	4F#\ 4A 4d	.	4ff#'\) 4aa	.	4fff#'\) 4aaa	.
.	4A\ 4d 4f#	.	4dd'\ 4ff#	.	4ddd'\ 4fff#	.
=138	=138	=138	=138	=138	=138	=138
2.AAA/] 2.AA]	4r	.	[4gg#^\ [4bb	.	[4ggg#^\ [4bbb	.
.	4A\ 4d 4f#	.	8.gg#\L] 8.bb]	.	8.ggg#\L] 8.bbb]	.
.	.	.	16ff#\Jk 16aa	.	16fff#\Jk 16aaa	.
*Xped	*	*	*Xped	*	*	*
.	4d\ 4f# 4a	.	4ff#\ 4aa	.	4fff#\ 4aaa	.
!LO:LB:g=original	!LO:LB:g=original	!	!	!	!	!
=139	=139	=139	=139	=139	=139	=139
4CC#/ 4C#	4r	.	[4aa^\ [4ccc#	.	[4aaa^\ [4cccc#	f
4r	4A\ 4c# 4e#X	.	8.aa\L] 8.ccc#]	.	8.aaa\L] 8.cccc#]	.
.	.	.	16ee#X\Jk 16aa	.	16eee#X\Jk 16aaa	.
4r	4c#\ 4e# 4a	.	4ee#\ 4aa	.	4eee#\ 4aaa	.
=140	=140	=140	=140	=140	=140	=140
4DD/ 4D	4r	.	[4een^\ [4gg#	.	[4eeen^\ [4ggg#	.
4r	4A\ 4d 4f#	.	8.ee\L] 8.gg#]	.	8.eee\L] 8.ggg#]	.
.	.	.	16dd\Jk 16ff#	.	16ddd\Jk 16fff#	.
4r	4d\ 4f# 4a	.	4dd\ 4ff#	.	4ddd\ 4fff#	.
*	*	*	*	*	*X8va	*
!	!	!	!LO:LB:g=original	!	!LO:LB:g=original	!
=141	=141	=141	=141	=141	=141	=141
*ped	*	*	*ped	*	*8va	*
[2.DD/ [2.D	4r	.	(8dd\L 8ff#	.	(8ddd\L 8fff#	.
.	.	.	8ee\J 8gg#	.	8eee\J 8ggg#	.
.	4A\ 4d 4f#	.	4ff#'\) 4aa	.	4fff#'\) 4aaa	.
.	4d\ 4f# 4a	.	4dd'\ 4ff#	.	4ddd'\ 4fff#	.
=142	=142	=142	=142	=142	=142	=142
2.DD/] 2.D]	4r	.	[4gg#^\ [4bb	.	[4ggg#^\ [4bbb	<
.	4A\ 4d 4f#	.	8.gg#\L] 8.bb]	.	8.ggg#\L] 8.bbb]	.
.	.	.	16ff#\Jk 16aa	.	16fff#\Jk 16aaa	.
*Xped	*	*	*Xped	*	*	*
.	4d\ 4f# 4a	.	4ff#\ 4aa	.	4fff#\ 4aaa	[
=143	=143	=143	=143	=143	=143	=143
!	!LO:TX:b:t=dim._ _ _:problem:ext=ud:dynamics with extention lines	!LO:HP:t=dim._ _ _:ext=ud	!	!	!	!
4CC#/ 4C#	4r	>	[4aa^\ [4ccc#	.	[4aaa^\ [4cccc#	.
4r	4A\ 4c# 4e#X	.	8.aa\L] 8.ccc#]	.	8.aaa\L] 8.cccc#]	.
.	.	.	16ee#X\Jk 16aa	.	16eee#X\Jk 16aaa	.
4r	4c#\ 4e# 4a	.	4ee#\ 4aa	.	4eee#\ 4aaa	.
=144	=144	=144	=144	=144	=144	=144
4DD/ 4D	4r	.	[4een^\ [4gg#	.	[4eeen^\ [4ggg#	.
4r	4A\ 4d 4f#	.	8.ee\L] 8.gg#]	.	8.eee\L] 8.ggg#]	.
.	.	.	16dd\Jk 16ff#	.	16ddd\Jk 16fff#	.
4r	4d\ 4f# 4a	.	4dd\ 4ff#	.	4ddd\ 4fff#	.
*	*	*	*	*	*X8va	*
=145	=145	=145	=145	=145	=145	=145
4CC#/ 4C#	4r	.	[4a^>/ [4cc#	.	[4aa^\ [4ccc#	.
4r	4A\ 4c#	.	8.a/L] 8.cc#]	.	8.aa\L] 8.ccc#]	.
.	.	.	16a/Jk	.	16ee#X\Jk 16aa	.
4r	4c#\ 4e#X	.	4a/	.	4ee#\ 4aa	.
=146	=146	=146	=146	=146	=146	=146
4DD/ 4D	4r	.	[4g#^>/	.	[4een^\ [4gg#	.
4r	4F#\ 4A	.	8.g#/L]	.	8.ee\L] 8.gg#]	.
.	.	.	16f#/Jk	.	16dd\Jk 16ff#	.
4r	4A\ 4d	.	4f#/	.	4dd\ 4ff#	.
!LO:LB:g=original	!LO:LB:g=original	!	!	!	!	!
=147	=147	=147	=147	=147	=147	=147
!	!	!	!	!	!	!LO:HP:t=dim.
4CC#/ 4C#	4r	.	[4a/ [4cc#	.	2.r	>
4r	4E#X\ 4A	.	8.a/L] 8.cc#]	.	.	.
.	.	.	16e#X/Jk 16a	.	.	.
4r	4A\ 4c#	.	4e#/ 4a	.	.	.
!	!	!	!LO:LB:g=original	!	!LO:LB:g=original	!
=148	=148	=148	=148	=148	=148	=148
4DD/ 4D	4r	.	[4en/ [4g#	.	2.r	.
4r	4D\ 4F#	.	8.e/L] 8.g#]	.	.	.
.	.	.	16d/Jk 16f#	.	.	.
4r	4F#\ 4A	.	4d/ 4f#	.	.	.
=149	=149	=149	=149	=149	=149	=149
4r	4r	.	2.r	.	([4e/ [4g#	p
4DD/ 4AA	4D\ 4F#	] pp	.	.	8.e/L] 8.g#]	.
.	.	.	.	.	16d/Jk) 16f#	.
4r	4r	.	.	.	4d/ 4f#	.
=150	=150	=150	=150	=150	=150	=150
4r	4r	.	2.r	.	([4g#/ [4b	.
4DD/ 4AA	4D\ 4F#	.	.	.	8.g#/L] 8.b]	.
.	.	.	.	.	16f#/Jk) 16a	.
4r	4r	.	.	.	4f#/ 4a	.
=151	=151	=151	=151	=151	=151	=151
4r	4r	.	([4e/ [4g#	.	2.r	.
4DD/ 4AA	4D\ 4F#	.	8.e/L] 8.g#]	.	.	.
.	.	.	16d/Jk) 16f#	.	.	.
4r	4r	.	4d/ 4f#	.	.	.
=152	=152	=152	=152	=152	=152	=152
4r	4r	.	2.r	.	([4g#/ [4b	.
4DD#X/ 4D#X	4F#\ 4cn	.	.	.	8.g#/L] 8.b]	.
.	.	.	.	.	16f#/Jk) 16a	.
4r	4r	.	.	.	4f#/ 4a	.
=153	=153	=153	=153	=153	=153	=153
*	*	*	*ped	*	*	*
4r	4r	.	[2.B#X/	.	[2.f#/ [2.g#	pp
4r	4r	.	.	.	.	.
*ped	*	*	*	*	*	*
4DD#X/ 4D#X	4F#\	.	.	.	.	.
=154	=154	=154	=154	=154	=154	=154
!	!LO:TX:b:t=1	!	!	!	!	!
2.r	2.r	.	2.B#/]	.	2.f#/] 2.g#]	.
!LO:LB:g=original	!LO:LB:g=original	!	!	!	!	!
=155	=155	=155	=155	=155	=155	=155
4r	4r	.	[2.B#X/	.	[2.f#/ [2.g#	.
4r	4r	.	.	.	.	.
4DD#X/ 4D#X	4F#\	.	.	.	.	.
=156	=156	=156	=156	=156	=156	=156
2.r;>	2.r;>	.	2.B#;>/]	.	2.f#;>/] 2.g#]	.
*Xped	*	*	*Xped	*	*	*
!	!	!	!LO:LB:g=original	!	!LO:LB:g=original	!
=157	=157	=157	=157	=157	=157	=157
!	!	!	!	!	!LO:TX:b:i:t=espressivo	!
!	!LO:TX:a:B:t=Più lento.	!	!	!	!LO:TX:a:B:t=Più lento.	!
4r	2.r	.	4r	.	(>2g#/	p
!	!	!	!	!	!	!LO:DY:b=2
[2DDn/ [2Dn	.	pp	2cn/ 2f#	.	.	pp
.	.	.	.	.	4a/	.
=158	=158	=158	=158	=158	=158	=158
4DD/] 4D]	2.r	.	4r	.	2b\	<
[2DD/ [2D	.	.	2cn/ 2f#	.	.	.
.	.	.	.	.	4ccn\	.
=159	=159	=159	=159	=159	=159	=159
4DD/] 4D]	2.r	.	4r	.	2cc#X\	.
(2DD/ 2D	.	<	(<2B/ 2d 2gn	.	.	.
.	.	.	.	.	[4dd\	[
=160	=160	=160	=160	=160	=160	=160
2.CC#X/) 2.C#X	2.r	[	2.B-X^/) 2.e-X 2.gn	.	4dd\]	>
.	.	.	.	.	4ffn\	.
.	.	.	.	.	4ee-X\)	]
=161	=161	=161	=161	=161	=161	=161
4r	2.r	.	4r	.	(2g#X/	<
[2DD/ [2D	.	.	2cn/ 2f#	.	.	.
.	.	.	.	.	4a/	.
=162	=162	=162	=162	=162	=162	=162
4DD/] 4D]	2.r	.	4r	.	2b\	.
[2DD/ [2D	.	.	2cn/ 2f#	.	.	.
.	.	.	.	.	4ccn\	.
=163	=163	=163	=163	=163	=163	=163
4DD/] 4D]	2.r	<[	4r	.	2cc#X\	.
[2DD/ [2D	.	.	(2B/ 2d 2gn	.	.	.
.	.	.	.	.	[4dd\	[
=164	=164	=164	=164	=164	=164	=164
2.DD/] 2.D]	2.r	.	2.B-X^>/) 2.e-X 2.gn	.	4dd\]	>
.	.	.	.	.	4ffn\	.
.	.	.	.	.	4ee-X\)	]
!LO:PB:g=original	!LO:PB:g=original	!	!LO:PB:g=original	!	!LO:PB:g=original	!
=165	=165	=165	=165	=165	=165	=165
!	!LO:TX:b:t=cresc._ _ _:problem:ext=ud:dynamics with extention lines	!LO:HP:t=cresc._ _ _:ext=ud	!	!	!	!LO:HP:t=cresc.
4r	2.r	<	4r	.	(2g#X/	<
2DD/ 2D	.	.	2cn/ 2f#	.	.	.
.	.	.	.	.	4a/	[
=166	=166	=166	=166	=166	=166	=166
4r	2.r	.	4r	.	2b\	.
[2CCn/ [2Cn	.	.	2d/ 2f#	.	.	.
.	.	.	.	.	4ccn\	.
=167	=167	=167	=167	=167	=167	=167
4CC/] 4C]	2.r	.	4r	.	2cc#X\	.
(2BBB/ 2BB	.	[ <	2d/ 2gn	.	.	.
.	.	.	.	.	[4dd\	.
=168	=168	=168	=168	=168	=168	=168
*	*	*	*ped	*	*	*
2.CCn^>/) 2.Cn	2.r	[	2.e-/ 2.a-	.	4dd\]	.
.	.	.	.	.	4ffn\	.
.	.	.	.	.	4ee-X\	.
=169	=169	=169	=169	=169	=169	=169
!	!LO:TX:b:t=15	!	!	!	!LO:TX:b:i:t=quasi recitativo	!
2.r	2.r	.	2.r	.	4ggn\	f <
.	.	.	.	.	4bb-X\	.
.	.	.	.	.	4aa-X\	[
=170	=170	=170	=170	=170	=170	=170
2.r	2.r	.	2.r	.	4eeen\	.
.	.	.	.	.	4ggn\	.
.	.	.	.	.	4bb-X\	.
=171	=171	=171	=171	=171	=171	=171
!	!	!	!	!	!	!LO:HP:t=sempre dim.
2.r	2.r	.	2.r	.	4aa-X\	>
.	.	.	.	.	4dd\	.
.	.	.	.	.	4ffn\	.
=172	=172	=172	=172	=172	=172	=172
2.r	2.r	.	2.r	.	4ee-X\	.
*	*	*	*Xped	*	*	*
.	.	.	.	.	4ccn\	.
.	.	.	.	.	[4gn/)	.
!LO:LB:g=original	!LO:LB:g=original	!	!LO:LB:g=original	!	!LO:LB:g=original	!
=173	=173	=173	=173	=173	=173	=173
2.r	2.r	.	2.r	.	4g/]	<
.	.	.	.	.	N&(4b-X\	.
.	.	.	.	.	4a-X/	[
=174	=174	=174	=174	=174	=174	=174
2.r	2.r	.	2.r	.	4ccn\	.
.	.	.	.	.	4gn/	.
.	.	.	.	.	4b-X\	.
=175	=175	=175	=175	=175	=175	=175
2.r	2.r	.	4r	.	4a-X/	.
.	.	.	4d/	.	4r	.
.	.	.	4fn/	.	4r	.
=176	=176	=176	=176	=176	=176	=176
2.r	2.r	.	4e-X/	.	2.r	.
.	.	.	4cn/	.	.	.
.	.	.	[4Gn/N&)	.	.	.
=177	=177	=177	=177	=177	=177	=177
2.r	2.r	.	4G/]	.	2.r	.
.	.	.	(4B-X/	.	.	.
.	.	.	4A-X/	.	.	.
=178	=178	=178	=178	=178	=178	=178
2.r	2.r	.	4cn/	.	2.r	.
.	.	.	4Gn/)	.	.	.
.	.	.	[4B-X/	.	.	.
=179	=179	=179	=179	=179	=179	=179
2.r	2.r	.	4B-/]	.	2.r	<[
.	.	.	(4B-X/	.	.	.
.	.	.	4A-X/	.	.	.
=180	=180	=180	=180	=180	=180	=180
2.r	2.r	.	4cn/	.	2.r	>]
.	.	.	4Gn/)	.	.	.
.	.	.	[4B-X/	.	.	.
!	!	!	!LO:LB:g=original	!	!LO:LB:g=original	!
=181	=181	=181	=181	=181	=181	=181
2.r	2.r	.	4B-/]	.	2.r	<
.	.	.	(4B-X/	.	.	.
.	.	.	4A-X/	.	.	.
=182	=182	=182	=182	=182	=182	=182
2.r	2.r	.	4cn/	.	2.r	.
.	.	.	4d/	.	.	.
.	.	.	4fn/	.	.	[
=183	=183	=183	=183	=183	=183	=183
2.r	2.r	.	2e-X/	.	2.r	>
.	.	.	[4fn/)	.	.	.
=184	=184	=184	=184	=184	=184	=184
2.r;>	2.r;>	.	2f/]	.	2.r;>	]]
.	.	.	4f#X;>/	.	.	.
!LO:LB:g=original	!LO:LB:g=original	!	!	!	!	!
=185||	=185||	=185||	=185||	=185||	=185||	=185||
*k[b-e-a-]	*k[b-e-a-]	*	*k[b-e-a-]	*	*k[b-e-a-]	*
!	!LO:TX:a:B:t=Tempo I.	!	!	!	!LO:TX:b:i:t=molto espressivo	!
!	!	!	!	!	!LO:TX:a:B:t=Tempo I.	!
[2.GGG/ [2.GG	4r	pp	2.r	.	([2g/	p
.	(4G\ 4c 4e-	.	.	.	.	.
.	4E-\) 4G 4c	.	.	.	8.g/L]	.
.	.	.	.	.	16a-/Jk	.
=186	=186	=186	=186	=186	=186	=186
2.GGG/] 2.GG]	4r	.	2.r	.	[2an/	.
.	(4G\ 4c 4e-	.	.	.	.	.
.	4E-\) 4G 4c	.	.	.	8.a/L]	.
.	.	.	.	.	16b-/Jk	.
=187	=187	=187	=187	=187	=187	=187
2.GGG/ 2.GG	4r	.	2.r	.	2bn\	<
.	(4A-\ 4d 4f	.	.	.	.	.
.	4F\) 4A- 4d	.	.	.	[4aa-\	[
!	!	!	!LO:LB:g=original	!	!LO:LB:g=original	!
=188	=188	=188	=188	=188	=188	=188
!	!	!	!	!	!LO:TX:b:i:t=poco rit.	!
2.GGG/ 2.GG	4r	.	2.r	.	8aa-\L]	>
.	.	.	.	.	8gg\	.
!	!LO:TX:b:i:t=poco rit.	!	!	!	!	!
.	(4F\ 4A- 4d	.	.	.	8ff\	.
.	.	.	.	.	8dd\	.
.	4A-\) 4d 4f	.	.	.	8bn~\	.
.	.	.	.	.	8a-\J)	]
=189	=189	=189	=189	=189	=189	=189
!	!LO:TX:a:i:t=a tempo	!	!	!	!LO:TX:a:i:t=a tempo	!
[2.GGG/ [2.GG	4r	.	2.r	.	([2g/	<
.	(4G\ 4c 4f	.	.	.	.	.
.	4G\) 4c 4e-	.	.	.	8.g/L]	.
.	.	.	.	.	16a-/Jk	.
=190	=190	=190	=190	=190	=190	=190
2.GGG/] 2.GG]	4r	.	2.r	.	[2an/	.
.	(4c\ 4e- 4g	.	.	.	.	.
.	4G\) 4c 4e-	.	.	.	8.a/L]	.
.	.	.	.	.	16b-/Jk	.
!LO:LB:g=original	!LO:LB:g=original	!	!	!	!	!
=191	=191	=191	=191	=191	=191	=191
2.FFF/ 2.FF	4r	.	2.r	.	2cc\	.
.	(4c\ 4e- 4a-	.	.	.	.	.
.	4F\) 4c 4e-	.	.	.	[4bb-^\	[
=192	=192	=192	=192	=192	=192	=192
*^	*	*	*	*	*	*
4r	2.BBB-\ 2.BB-	4r	.	2.r;>	.	8bb-\L]	>
.	.	.	.	.	.	8aa-\	.
2F;>/	.	(4.c;>\ 4.e- 4.a-	>	.	.	8ff\	.
.	.	.	.	.	.	8cc\	.
.	.	.	.	.	.	8ee-;>\	.
.	.	8d\)	]	.	.	8dd\J)	]
*v	*v	*	*	*	*	*	*
=193	=193	=193	=193	=193	=193	=193
!	!	!	!	!	!LO:TX:b:t=cresc._ _ _:problem:ext=ud:dynamics with extention lines	!LO:HP:t=cresc._ _ _:ext=ud
2.EE-/ 2.E-	4r	.	2.r	.	([2b-\	<
.	(4B-\ 4e- 4a-	.	.	.	.	.
.	4B-\) 4e- 4g	.	.	.	8.b-\L]	.
.	.	.	.	.	16bn\Jk	.
*	*clefG2	*	*	*	*	*
=194	=194	=194	=194	=194	=194	=194
2.EE-/ 2.E-	4r	.	2.r	.	[2cc\	.
.	[4B-/ 4e- 4an	.	.	.	.	.
.	4B-/] 4e- 4g	.	.	.	8.cc\L]	.
.	.	.	.	.	16cc#X\Jk	.
=195	=195	=195	=195	=195	=195	=195
2.DD/ 2.D	4r	<	4r	.	2dd\	.
.	4B-/ 4e- 4an	.	4r	.	.	.
.	4B-/ 4e- 4g	.	([4dd\	.	[4ddd\	[
!	!	!	!LO:LB:g=original	!	!LO:LB:g=original	!
=196	=196	=196	=196	=196	=196	=196
2.CC/ 2.C	4r	<	4dd\]	.	4ddd\]	<
.	4An/ 4d 4g	.	4dd\	.	4ddd\	.
.	4A/ 4d 4f#X	[	4dd\	.	4ddd\)	.
*	*clefF4	*	*	*	*	*
!LO:LB:g=original	!LO:LB:g=original	!	!	!	!	!
=197	=197	=197	=197	=197	=197	=197
[2.BBB-/ [2.BB-	4r	f	2.dd^>\	.	(2.ddd^\	[[
.	4B-\ 4d 4g	.	.	.	.	.
.	4G\ 4B- 4d	.	.	.	.	.
=198	=198	=198	=198	=198	=198	=198
!	!LO:TX:b:t=dim._ _ _:problem:ext=ud:dynamics with extention lines	!LO:HP:t=dim._ _ _:ext=ud	!	!	!LO:TX:b:t=dim._ _ _:problem:ext=ud:dynamics with extention lines	!LO:HP:t=dim._ _ _:ext=ud
2.BBB-/] 2.BB-]	4r	>	4b-\)	.	4bb-\	>
.	4B-\ 4d 4fn	.	2r	.	[4dd\	.
.	4F\ 4A- 4d	.	.	.	8.dd\L]	.
.	.	.	.	.	16ee-\Jk	.
=199	=199	=199	=199	=199	=199	=199
2.AAAn/ 2.AAn	4r	.	2.r	.	2.ff\	.
.	4An\ 4d 4f	.	.	.	.	.
.	4F\ 4A 4d	.	.	.	.	.
=200	=200	=200	=200	=200	=200	=200
2.GGG/ 2.GG	4r	.	2.r	.	4dd\	.
.	4G\ 4Bn 4d	.	.	.	[4f/	.
.	4F\ 4G 4B	.	.	.	8.f/L]	]
.	.	]	.	.	16f#X/Jk)	.
=201	=201	=201	=201	=201	=201	=201
*	*	*^	*	*	*	*
!	!LO:TX:b:i:t=il canto ben marcato	!	!	!	!	!	!
4CC/ 4C	[2.e-\	mf	p	2.r	.	([2g/	p <
4G\ 4c	.	.	.	.	.	.	.
4E-\ 4G 4c	.	.	.	.	.	8.g/L]	.
.	.	.	.	.	.	16a-/Jk	.
*	*	*v	*v	*	*	*	*
=202	=202	=202	=202	=202	=202	=202
4r	4e-\]	.	2.r	.	[2an/	.
4G\ 4c 4e-	4r	.	.	.	.	.
4E-\ 4G 4c	(4e-\	.	.	.	8.a/L]	.
.	.	.	.	.	16b-/Jk	.
=203	=203	=203	=203	=203	=203	=203
4CC/ 4C	2d\	.	2.r	.	2bn\	.
4F\ 4A-	.	.	.	.	.	.
4F\ 4A-	[4c\)	.	.	.	[4aa-^\	[[
!LO:LB:g=original	!LO:LB:g=original	!	!LO:LB:g=original	!	!LO:LB:g=original	!
=204	=204	=204	=204	=204	=204	=204
!	!LO:TX:b:i:t=poco rit.	!	!	!	!	!
4CC/ 4C	(4c\]	.	2.r	.	8aa-\L]	>
.	.	.	.	.	8gg\	.
4C\ 4A-	4Bn\	.	.	.	8ff\	.
!	!	!	!	!	!LO:TX:b:i:t=poco rit.	!
.	.	.	.	.	8dd\	.
4A-\ 4d	4f\)	.	.	.	8bn~\	.
.	.	.	.	.	8a-\J)	]
=205	=205	=205	=205	=205	=205	=205
!	!LO:TX:a:i:t=a tempo	!	!	!	!LO:TX:a:i:t=a tempo	!
4CC/ 4C	(2f\	.	2.r	.	([2g/	<
4G\ 4c	.	.	.	.	.	.
4G\ 4c	[4e-\)	.	.	.	8.g/L]	.
.	.	.	.	.	16a-/Jk	.
=206	=206	=206	=206	=206	=206	=206
4r	4e-\]	.	2.r	.	[2an/	.
!	!LO:TX:b:i:t=m.d.	!	!	!	!	!
4r>	4c<\ 4e-< 4g<	.	.	.	.	.
4G\ 4c	(4e-\	.	.	.	8.a/L]	.
.	.	.	.	.	16b-/Jk	.
=207	=207	=207	=207	=207	=207	=207
4DD/ 4BB-	4e-\	<	2.r	.	2cc\	.
4c\ 4e-	4a-\	.	.	.	.	.
4F\ 4c	4e-\	[	.	.	[4bb-^>\	[[
=208	=208	=208	=208	=208	=208	=208
!	!LO:TX:b:i:t=poco rit.	!	!	!	!	!
4BBB-/ 4BB-	[4a-\	>	4r	.	8bb-\L]	>
.	.	.	.	.	8aa-\	.
!	!	!	!	!	!LO:TX:b:i:t=poco rit.	!
4.F\ 4.A- 4.e-	8a-\L]	.	4r	.	8ff\	.
.	[8a-\J	.	.	.	8cc\	.
.	4a-\])	]	&(4cc-X^\	.	8ee-~\	.
8d\	.	.	.	.	8dd\J)	]
=209	=209	=209	=209	=209	=209	=209
!	!LO:TX:a:i:t=a tempo	!	!	!	!LO:TX:a:i:t=a tempo	!LO:HP:t=cresc.
4EE-/ 4E-	(2a-\	.	N&&(>[2b-\	.	4r	<
4B-\ 4e-	.	.	.	.	4r	.
4G\ 4B- 4e-	[4g\)	.	8.b-\]&)	.	8.r	.
.	.	.	16r	.	16bn\	.
=210	=210	=210	=210	=210	=210	=210
*	*	*^	*	*	*	*
4EE-/ 4E-	(4g\]	<	<	2.r	.	[2cc\	.
*	*clefG2	*	*	*	*	*	*
4B-\ 4e-	4an/	.	.	.	.	.	.
4G\ 4B- 4e-	4b-\	[	.	.	.	8.cc\L]	.
.	.	.	.	.	.	16cc#X\Jk	.
*	*	*v	*v	*	*	*	*
!LO:PB:g=original	!LO:PB:g=original	!	!LO:PB:g=original	!	!LO:PB:g=original	!
=211	=211	=211	=211	=211	=211	=211
4DD/	4b-/	f	4r	.	2dd\	f
4B-\ 4d	4an/	.	4r	.	.	.
4B-\ 4d	4g/	.	[4dd\	.	[4ddd\	.
=212	=212	=212	=212	=212	=212	=212
*	*^	*	*	*	*	*
2.CC/ 2.C	2g^>/	4r	.	4dd\]	.	4ddd\]	.
.	.	4An\ 4d	.	4dd\	.	4ddd\	.
.	4f#X/	4A\ 4d	.	4dd\	.	4ddd\N&&)	.
=213	=213	=213	=213	=213	=213	=213	=213
!	!	!	!	!	!	!LO:TX:b:i:t=molto espressivo	!
2.BBBn/ 2.BBn	2g/)	4r	.	(2.dd^\	.	(>2.ddd^\	.
.	.	4G\ 4d	.	.	.	.	.
.	4g/	4G\ 4d	.	.	.	.	.
*	*v	*v	*	*	*	*	*
*	*clefF4	*	*	*	*	*
=214	=214	=214	=214	=214	=214	=214
2EEn/ 2En	4r	.	4bn\	.	4bbn\	.
.	4G\ 4Bn	.	4g/	.	4bn\	<
4EE/ 4E	4G\ 4c	.	4g/	.	4cc\	.
=215	=215	=215	=215	=215	=215	=215
4DD/ 4D	4G\ 4Bn	.	4d/)	.	4dd\)	.
2CC^>/ 2C	2G^>\	.	(4d^>/ 4f#X	.	(>4dd^\ 4ff#X	[
.	.	.	4c/ 4en	.	4cc\ 4een	.
=216	=216	=216	=216	=216	=216	=216
!	!	!LO:HP:t=dim.	!	!	!	!LO:HP:t=dim.
4BBBn/ 4BBn	4G\	>	4d/	.	4g\ 4dd	>
4EEn/ 4En	4G\ 4Bn	.	4en/	.	4g/	.
4DD/ 4D	4An\ 4c	.	4f#X/)	.	4an/)	.
=217	=217	=217	=217	=217	=217	=217
.	.	.	.	.	(<16qqg/LL	p >
.	.	.	.	.	16qqan/JJ	.
[2.GGG/ [2.GG	4Bn\	>	2.r	.	(<2.bn/)	.
.	(4B^>\ 4d	.	.	.	.	.
.	4G\) 4B	]	.	.	.	.
=218	=218	=218	=218	=218	=218	=218
2.GGG/_ 2.GG_	4r	>	2.r	.	2.g/)	]]
.	(4c^>\ 4en	.	.	.	.	.
.	8B-\) 8d	]	.	.	.	.
.	8r	.	.	.	.	.
*	*clefG2	*	*	*	*	*
!LO:LB:g=original	!LO:LB:g=original	!	!	!	!	!
=219	=219	=219	=219	=219	=219	=219
!	!	!	!	!	!LO:TX:b:t=1	!
2.GGG/] 2.GG]	4r	.	2.r	.	2.r	.
.	(4An/ 4c	>	.	.	.	.
.	8G/) 8Bn	.	.	.	.	.
.	8r	]	.	.	.	.
!	!	!	!LO:LB:g=original	!	!LO:LB:g=original	!
=220	=220	=220	=220	=220	=220	=220
2.GGG/ 2.GG	4r	.	4r	.	[2g/	<
.	(4G/ 4Bn	>	4r	.	.	.
.	8A-X/) 8c	.	8.r	.	8.g\L]	.
.	8r	]	.	.	.	.
.	.	.	16g/	.	16gg\Jk	[[
=221	=221	=221	=221	=221	=221	=221
!	!LO:TX:a:i:t=Poco a poco più animato.	!	!	!	!	!
2.AAA-X/ 2.AA-X	4r	.	(<[2g/	.	(>[2gg\	mf
.	(4A-/ 4c	>	.	.	.	.
!	!	!	!	!	!LO:TX:b:i:t=con dolore	!
.	8An/) 8c#X	]	8.g/L]	.	8.gg\L]	.
.	8r	.	.	.	.	.
.	.	.	16f#X/Jk	.	16ff#X\Jk	.
=222	=222	=222	=222	=222	=222	=222
2.AAAn/ 2.AAn	4r	.	[2fnX/	.	[2ffnX\	.
.	(4An/ 4c#X	>	.	.	.	.
.	8A-X/) 8cn	]	8.f/L]	.	8.ff\L]	.
.	8r	.	.	.	.	.
.	.	.	16en/Jk	.	16een\Jk	.
=223	=223	=223	=223	=223	=223	=223
[2.BBB-/ [2.BB-	4r	.	4e-X'/)	.	4ee-X'\)	.
.	(4A-/ 4c	<	[2d^>/	.	[2dd^>\	.
.	4A-/ 4c-X	.	.	.	.	.
=224	=224	=224	=224	=224	=224	=224
2.BBB-/] 2.BB-]	4A-^^>/ 4B-	.	4d/] 4b-^^>	2	4dd\]	<
.	4A-/ 4B- 4g	.	(<4f/	.	(>4ff\	.
.	4A-/) 4B- 4d	[	4g/	.	4gg\	[
=225	=225	=225	=225	=225	=225	=225
*	*	*^	*	*	*	*
!	!	!	!	!	!	!LO:TX:b:t=cresc._ _ _:problem:ext=ud:dynamics with extention lines	!LO:HP:t=cresc._ _ _:ext=ud
2.CC/ 2.C	4r	.	.	[2b-/	.	[2bb-\	<
.	(4c/ 4en	>	<	.	.	.	.
.	8d-X/) 8f	.	.	8.b-/L]	.	8.bb-\L]	.
.	8r	]	.	.	.	.	.
.	.	.	.	16an/Jk	.	16aan\Jk	.
*	*	*v	*v	*	*	*	*
=226	=226	=226	=226	=226	=226	=226
2.DD-X/ 2.D-X	4r	.	[2a-X/	.	[2aa-X\	.
.	(4d-X/ 4f	>	.	.	.	.
.	8c/) 8en	]	8.a-/L]	.	8.aa-\L]	.
.	8r	.	.	.	.	.
.	.	.	16g/Jk)	.	16gg\Jk)	[
!LO:LB:g=original	!LO:LB:g=original	!	!	!	!	!
=227	=227	=227	=227	=227	=227	=227
[2.DDn/ [2.Dn	4r	.	2g/	.	2gg\	<
.	(4c/ 4en	<	.	.	.	.
.	4c/ 4e-X	.	[4f#X/	.	[4ff#X\	.
!	!	!	!LO:LB:g=original	!	!LO:LB:g=original	!
=228	=228	=228	=228	=228	=228	=228
2.DD/] 2.D]	4c^^>/ 4d	.	4f#/] 4dd^^>	2	4ff#\]	.
.	4c/ 4d 4g	.	4b-\	.	4bb-\	.
.	4c/) 4d 4f#X	[	4cc\	.	4ccc\	[
*	*clefF4	*	*	*	*	*
=229	=229	=229	=229	=229	=229	=229
2.BBB-/ 2.BB-	(4D\ 4G 4d	f	([2dd^\	.	(>[2gg^\ [2ddd	f
!	!LO:TX:b:i:t=appassionato	!	!	!	!	!
.	4An\ 4an	.	.	.	.	.
!	!	!	!	!	!LO:TX:b:i:t=appassionato	!
.	4G\ 4g	.	8.dd\L]	.	8.gg\L] 8.ddd]	.
.	.	.	16cc\Jk	.	16ccc\Jk	.
=230	=230	=230	=230	=230	=230	=230
2.CC/ 2.C	2c\	.	4b-\	.	4ee-\ 4bb-	.
.	.	.	4an/	.	4aan\	.
.	4E-\) 4e-	.	4a-X/	.	4aa-X\	.
=231	=231	=231	=231	=231	=231	=231
[2.DD/	(2E-^>\ 2e-	.	4g'/)	.	4cc'\) 4gg	.
.	.	.	([2f#X^>/	.	(>[2ff#X^\	.
.	4D\ 4d	.	.	.	.	.
=232	=232	=232	=232	=232	=232	=232
2.DD/]	4C#X\ 4c#X	.	4f#/]	.	4ff#\]	<
.	2D^>\) 2d	.	4b-\	.	4bb-\	.
.	.	.	4ccn\)	.	4cccn\)	[
=233	=233	=233	=233	=233	=233	=233
2.BBB-/ 2.BB-	(4D\ 4G 4d	.	([2dd^\	.	(>[2gg^\ [2ddd	.
.	4An\ 4an	.	.	.	.	.
.	4G\ 4g	.	8.dd\L]	.	8.gg\L] 8.ddd]	.
.	.	.	16cc\Jk	.	16ccc\Jk	.
=234	=234	=234	=234	=234	=234	=234
2.CC/ 2.C	2c\	.	4b-/	.	4ee-\ 4bb-	.
.	.	.	4an/	.	4aan\	.
.	4E-\) 4e-	.	4a-X/	.	4aa-X\	.
=235	=235	=235	=235	=235	=235	=235
[2.DD/	(2E-^>\ 2e-	.	4g'/)	.	4cc'\) 4gg	.
.	.	.	([2f#X^>/	.	(>[2ff#X^\	.
.	4D\ 4d	.	.	.	.	.
!LO:LB:g=original	!LO:LB:g=original	!	!LO:LB:g=original	!	!LO:LB:g=original	!
=236	=236	=236	=236	=236	=236	=236
2.DD/]	4C#X\ 4c#X	.	4f#/]	.	4ff#\]	<
.	2D^>\) 2d	.	4b-\	.	4bb-\	.
.	.	.	4ccn\)	.	4cccn\)	[
=237	=237	=237	=237	=237	=237	=237
2.BBB-/ 2.BB-	4D\ 4G 4d	<	(2g^\ 2dd	.	(>2gg^\ 2ddd	.
.	4E-^>\ 4e-	.	.	.	.	.
.	4D\ 4d	[	4b-\	.	4bb-\	.
=238	=238	=238	=238	=238	=238	=238
2.CC/ 2.C	2D^>\ 2F#X 2B- 2d	.	4f#X/	.	4ff#X\	<
.	.	.	4b-\	.	4bb-\	.
.	4D\ 4F# 4c 4d	.	4cc\)	.	4ccc\)	[
=239	=239	=239	=239	=239	=239	=239
2.BBB-/ 2.BB-	4D\ 4G 4d	<	(2g^\ 2dd	.	(>2gg^\ 2ddd	.
.	4E-^>\ 4e-	.	.	.	.	.
.	4D\ 4d	[	4b-\	.	4bb-\	.
=240	=240	=240	=240	=240	=240	=240
2.CC/ 2.C	2D^>\ 2F#X 2B- 2d	.	4f#X/	.	4ff#X\	<
.	.	.	4b-\	.	4bb-\	.
.	4D\ 4F# 4c 4d	.	4cc\)	.	4ccc\)	[
=241	=241	=241	=241	=241	=241	=241
!	!	!	!	!	!LO:TX:b:i:t=sempre più	!
2.BBB-/ 2.BB-	4r	.	(2dd^\	.	(2gg^\ 2ddd	.
.	(4An^>\ 4d 4an	>	.	.	.	.
.	8G\) 8g	]	4b-\)	.	4bb-\)	.
.	8r	.	.	.	.	.
=242	=242	=242	=242	=242	=242	=242
2.BBB-/ 2.BB-	4r	.	(2dd^\	.	(2bb-^\ 2ddd	f
.	(4G^>\ 4d 4g	>	.	.	.	.
.	8F#X\) 8f#X	]	4b-\)	.	4bb-\)	.
.	8r	.	.	.	.	.
=243	=243	=243	=243	=243	=243	=243
2.BBB-/ 2.BB-	4r	.	(2dd^\	.	(2gg^\ 2ddd	.
.	(4F#X^>\ 4d 4f#X	>	.	.	.	.
.	8Fn\) 8fn	]	4b-\)	.	4bb-\)	.
.	8r	.	.	.	.	.
!LO:LB:g=original	!LO:LB:g=original	!	!	!	!	!
=244	=244	=244	=244	=244	=244	=244
4BBB-^>/ 4BB-	4D^>\ 4B- 4d	.	4b-^>\ 4dd	.	4bb-^>\ 4ddd	<
4GGG^>/ 4GG	4E-^>\ 4B- 4e-	.	4b-^>\ 4ee-	.	4bb-^>\ 4eee-	.
4GGG-X^>/ 4GG-X	4En^>\ 4B- 4en	.	4b-^>\ 4een	.	4bb-^>\ 4eeen	[
!	!	!	!LO:LB:g=original	!	!LO:LB:g=original	!
=245	=245	=245	=245	=245	=245	=245
!	!LO:TX:a:B:t=Molto animato.	!	!	!	!LO:TX:a:B:t=Molto animato.	!
2FFF/ 2FF	2F\ 2B- 2f	ff	(2b-\ 2ff	.	2bb-\ 2fff	sf
!	!LO:TX:b:i:t=marcatissimo	!	!	!	!LO:TX:b:i:t=marcatissimo	!
4GGGn/ 4GGn	4En\ 4B- 4en	.	4b-\ 4een	.	4bb-\ 4eeen	.
=246	=246	=246	=246	=246	=246	=246
2.AAA-/ 2.AA-	4E-X^>\ 4c 4e-X	.	4cc\ 4ee-X	.	4ccc\ 4eee-X	.
.	4E-^>\ 4A- 4d 4e-	.	4a-\ 4dd	.	4aa-\ 4ddd	.
.	4E-^>\ 4A- 4d-X 4e-	.	4a-\) 4dd-X	.	4aa-\ 4ddd-X	.
=247	=247	=247	=247	=247	=247	=247
2.AAAn/ 2.AAn	2F#X^>\ 2c 2dn	.	(<2f#X^>/ 2cc	.	(>2ff#X^\ 2ccc	.
.	4Bn^>\ 4d	.	4bn/	.	4bbn\	.
=248	=248	=248	=248	=248	=248	=248
2.BBB-/ 2.BB-	4B-X^>\ 4d	.	4g/ 4b-X	.	4gg\ 4bb-X	.
.	4An^>\ 4d	.	4an/	.	4aan\	.
.	4A-X^>\ 4d	.	4a-X/)	.	4aa-X\)	.
=249	=249	=249	=249	=249	=249	=249
2.BBBn/ 2.BBn	(2G\ 2d	.	(2g^>/	.	(>2dd^\ 2gg	.
.	4f#X^>\	.	4g^>/	.	4ff#X\	.
=250	=250	=250	=250	=250	=250	=250
2.CC/ 2.C	4G^>\ 4c 4fn	.	4g^>/	.	4cc\ 4ffn	.
.	4en^>\	.	4g^>/	.	4een\	.
.	4e-X^>\)	.	4g^>/	.	4ee-X\)	.
=251	=251	=251	=251	=251	=251	=251
*	*^	*	*	*	*	*
2.DD/ 2.D	(2d^>/	2.F#X\	.	2.f#X^>/	.	(>2dd^\	.
.	4c#X/	.	.	.	.	4cc#X\	.
*	*v	*v	*	*	*	*	*
!LO:LB:g=original	!LO:LB:g=original	!	!	!	!	!
=252	=252	=252	=252	=252	=252	=252
[2.EE-/ [2.E-	4G\ 4cn	.	2g/)	.	4ccn\	.
.	4B-\	.	.	.	4b-\	.
.	4An\)	.	4r	.	4an/)	.
!	!	!	!LO:LB:g=original	!	!LO:LB:g=original	!
=253	=253	=253	=253	=253	=253	=253
(2EE-/] 2E-]	(2G\ 2B-	.	[2.e-/ [2.g	.	2.r	.
4DD/ 4D	4d\	.	.	.	.	.
=254	=254	=254	=254	=254	=254	=254
2CC/ 2C	2c\	.	4e-/] 4g]	.	4r	.
.	.	.	N(4e-/ 4g	.	4r	.
4BBB-/) 4BB-	4B-\)	.	4d/ 4g	.	4dd\N)	.
=255	=255	=255	=255	=255	=255	=255
(2EE-/ 2E-	(2G\ 2B-	.	[2.e-/ [2.g	.	2.r	.
4DD/ 4D	4d\	.	.	.	.	.
=256	=256	=256	=256	=256	=256	=256
2CC/ 2C	2c\	.	4e-/] 4g]	.	4r	.
.	.	.	N(4e-/ 4g	.	4r	.
4BBB-/) 4BB-	4B-\)	.	4d/ 4g	.	4dd\N)	.
=257	=257	=257	=257	=257	=257	=257
!	!LO:TX:a:B:t=Presto.	!	!	!	!LO:TX:a:t=Presto.	!
2.AAAn/ 2.AAn	2.An\	<	2.en/	.	2.cc#X\ 2.een	<
=258	=258	=258	=258	=258	=258	=258
2.BBB-/ 2.BB-	2.B-\	.	2.d/ 2.g	.	2.dd\ 2.gg	.
=259	=259	=259	=259	=259	=259	=259
2.CC/ 2.C	2.c\	.	2.e-X/ 2.b-	.	2.ee-X\ 2.bb-	.
=260	=260	=260	=260	=260	=260	=260
[2.DD^>/ [2.D	2.c^\	[	(<2.e-^>/ 2.f#X 2.b-	.	(>2.cc^\ 2.ee- 2.ff#X 2.bb-	[
=261	=261	=261	=261	=261	=261	=261
2DD/] 2D]	(2B-\	p	2.d/) 2.g	.	2.b-\ 2.dd 2.gg)	p
4GGG/ 4GG	4G\)	.	.	.	.	.
!LO:PB:g=original	!LO:PB:g=original	!	!LO:PB:g=original	!	!LO:PB:g=original	!
=262	=262	=262	=262	=262	=262	=262
*ped	*	*	*ped	*	*	*
4r	4r	.	(2.c^>/ 2.e-	.	(<2.f#X^>/ 2.b-	f > ]]
(8DD^>/L	(8D^>/L	mf	.	.	.	.
8CC#X/	8C#X/	.	.	.	.	.
*	*	*	*Xped	*	*	*
8CCn/	8Cn/	.	.	.	.	.
8BBBn/J	8BBn/J	.	.	.	.	.
*Xped	*	*	*	*	*	*
=263	=263	=263	=263	=263	=263	=263
4BBB-X'/)	4BB-X'/)	.	4G'/) 4d	.	4g'/)	.
4r	4r	.	4r	.	4r	.
4GGG/	4GG'/	.	4r	.	4r	.
=264	=264	=264	=264	=264	=264	=264
*ped	*	*	*ped	*	*	*
4r	4r	.	(<2.c/ 2.e-	.	(<2.f#X^>/ 2.b-	>
(8DD^>/L	(8D^>/L	.	.	.	.	.
8CC#X/	8C#X/	.	.	.	.	.
*	*	*	*Xped	*	*	*
8CCn/	8Cn/	.	.	.	.	.
8BBBn/J	8BBn/J	.	.	.	.	.
*Xped	*	*	*	*	*	*
=265	=265	=265	=265	=265	=265	=265
4BBB-X'/)	4BB-X'/)	.	4G'/) 4d	.	4g'/)	]
4r	4r	.	4r	.	4r	.
[4GGG^>/ [4GG	4r	.	4r	.	4r	.
=266	=266	=266	=266	=266	=266	=266
*ped	*	*	*ped	*	*	*
2GGG/] 2GG]	4F^>\ 4A- 4Bn 4e-	.	([2.fn^>/ [2.a-	.	(>[2.bn^\ [2.ee-	sf
.	(8e-^>\L	.	.	.	.	.
.	8d\	.	.	.	.	.
4r	8B\	.	.	.	.	.
.	8A-\J	.	.	.	.	.
=267	=267	=267	=267	=267	=267	=267
8G\	8r	.	2.f/_ 2.a-_	.	2.b\_ 2.ee-_	.
8r	8F#X/L	.	.	.	.	.
4r	8Fn/	.	.	.	.	.
.	(8D/	.	.	.	.	.
4r	8BBn/	.	.	.	.	.
.	8AA-/J	.	.	.	.	.
!LO:LB:g=original	!LO:LB:g=original	!	!	!	!	!
=268	=268	=268	=268	=268	=268	=268
4r	8GG/L	.	2f/] 2a-]	.	2b\] 2ee-]	.
.	8FF#X/)	.	.	.	.	.
(8FFn/L	8r	.	.	.	.	.
8DD/	8D/	.	.	.	.	.
8BBBn/	8BBn/	.	4d/	.	4dd\	.
*	*	*	*Xped	*	*	*
8AAA-/J	8AA-/J	.	.	.	.	.
*Xped	*	*	*	*	*	*
=269	=269	=269	=269	=269	=269	=269
4GGG')	4GG'/)	.	4c'/) 4en	.	4b-X'\) 4cc	.
4r	4r	.	4r	.	4r	.
4GGG'	4GG'/	.	4r	.	4r	.
=270	=270	=270	=270	=270	=270	=270
*ped	*	*	*ped	*	*	*
8r	8r	.	(<2.d-X^>/ 2.f	.	(>2.b-^>\ 2.dd-X	>]
(8GG/L	(8G\L	<	.	.	.	.
8AA-/	8A-\	.	.	.	.	.
8AAn/	8An\	.	.	.	.	.
*	*	*	*Xped	*	*	*
8BB-/	8B-\	.	.	.	.	.
*Xped	*	*	*	*	*	*
8BBn/J	8Bn\J	[[	.	.	.	.
!	!	!	!LO:LB:g=original	!	!LO:LB:g=original	!
=271	=271	=271	=271	=271	=271	=271
4C'/)	4c'\)	sf	4en'/)	.	4b-'\) 4cc	.
4r	4r	.	4r	.	4r	.
4GGG'/ 4GG	4r	.	4r	.	4r	.
=272	=272	=272	=272	=272	=272	=272
*ped	*	*	*ped	*	*	*
8r	8r	.	(<2.d-X^>/ 2.f	.	(>2.b-^\ 2.dd-X	>]
(8GG/L	(8G\L	<	.	.	.	.
8AA-X/	8A-X\	.	.	.	.	.
8AAn/	8An\	.	.	.	.	.
*	*	*	*Xped	*	*	*
8BB-X/	8B-X\	.	.	.	.	.
8BBn/J	8Bn\J	[[	.	.	.	.
*Xped	*	*	*	*	*	*
=273	=273	=273	=273	=273	=273	=273
4C'/)	4c'\)	f	4en'/)	.	4b-'\) 4cc	.
4r	4r	.	4r	.	4r	.
[4CC^>/ [4C	4r	.	4r	.	4r	.
!LO:LB:g=original	!LO:LB:g=original	!	!	!	!	!
=274	=274	=274	=274	=274	=274	=274
*ped	*	*	*ped	*	*	*
2.CC/] 2.C]	4B-^>\ 4d-X 4f	.	[2.a-^>/ [2.b-	.	(>[2.dd-X^>\ [2.aa-	sf
.	(>8f\L	.	.	.	.	.
.	8en\	.	.	.	.	.
.	8d-\	.	.	.	.	.
.	8B-\J	.	.	.	.	.
=275	=275	=275	=275	=275	=275	=275
!	!LO:TX:b:i:t=g.	!	!	!	!	!
4r	8G\L	.	2.a-/_ 2.b-_	.	2.dd-\_ 2.aa-_	.
.	8F#X\	.	.	.	.	.
8r	8Fn\	.	.	.	.	.
!LO:TX:a:i:t=d.	!	!	!	!	!	!
4r>	8En</	.	.	.	.	.
.	8D-X</	.	.	.	.	.
8r>	8BB-</J)	.	.	.	.	.
=276	=276	=276	=276	=276	=276	=276
(8GG/L	4r	.	(2a-/] 2b-]	.	2dd-\] 2aa-]	.
8FF#X/	.	.	.	.	.	.
8FFn/	8r	.	.	.	.	.
!LO:TX:a:i:t=g.	!	!	!	!	!	!
8EEn/	(8En/L	.	.	.	.	.
*Xped	*	*	*Xped	*	*	*
8DD-X/	8D-X/	.	4g/	.	4gg\	.
8BBB-/J	8BB-/J	.	.	.	.	.
=277	=277	=277	=277	=277	=277	=277
4AAA-/)	4AA-/)	.	4c'/) 4f	.	4cc'\) 4ff	.
4r	4r	.	4r	.	4r	.
4CC/ 4C	4r	.	4r	.	4r	.
=278	=278	=278	=278	=278	=278	=278
*ped	*	*	*ped	*	*	*
8r	(8B-\L 8d-X	ff <	(<2.en^>/ 2.a-	.	(>2.b-^\ 2.dd-X 2.een 2.aa-	sf
(8C\L	8c\	.	.	.	.	.
8C#X\	8Bn\	.	.	.	.	.
8Dn\	8B-X\	.	.	.	.	.
*	*	*	*Xped	*	*	*
8E-X\	8A-\	.	.	.	.	.
*Xped	*	*	*	*	*	*
8En\J	8G\J	[	.	.	.	.
!	!	!	!LO:LB:g=original	!	!LO:LB:g=original	!
=279	=279	=279	=279	=279	=279	=279
4F'\)	4A-'\)	f	4c'/) 4f	.	4cc'\) 4ff	.
4r	4r	.	4r	.	4r	.
[4CC^>/ [4C	4r	.	4r	.	4r	.
!LO:LB:g=original	!LO:LB:g=original	!	!	!	!	!
=280	=280	=280	=280	=280	=280	=280
*ped	*	*	*ped	*	*	*
(8CC/L] 8C]	8r	.	(2.B-^>/ 2.d-X 2.en 2.a-	.	(>2.b-^\ 2.dd-X 2.een 2.aa-	sf >
8CC/	(8C\L	<	.	.	.	.
8CC#X/	8C#X\	.	.	.	.	.
8DDn/	8Dn\	.	.	.	.	.
*	*	*	*Xped	*	*	*
8EE-X/	8E-X\	.	.	.	.	.
*Xped	*	*	*	*	*	*
8EEn/J	8En\J	.	.	.	.	.
=281	=281	=281	=281	=281	=281	=281
4FF'/)	4F\)	[	4c'/) 4f 4a-	.	4cc'\) 4ff	]
4r	4r	.	4r	.	4r	.
4EE-X'/	4E-X'\	.	4r	.	4r	.
=282	=282	=282	=282	=282	=282	=282
*ped	*	*	*ped	*	*	*
4DD-X'/	4D-X'\	sf	[<2.A-^>/ [>2.f [>2.a-	.	[2.ff^\ [2.aa-	sf
(>8AAA-/L	(>8AA-/L	p <	.	.	.	.
8GGG/	8GG/	.	.	.	.	.
8AAA-/	8AA-/	.	.	.	.	.
8BBB-/J	8BB-/J	.	.	.	.	.
=283	=283	=283	=283	=283	=283	=283
8CC/L	8C/L	.	4A-/] 4f] 4a-]	.	4ff\] 4aa-]	<
8BBB-/	8BB-/	.	.	.	.	.
8CC/	8C/	.	4f/ 4a-	.	4ff\ 4aa-	.
8DD-X/	8D-X/	.	.	.	.	.
8EE-/	8E-/	.	4f/ 4a-	.	4ff\ 4aa-	.
8FF/J	8F/J	.	.	.	.	.
=284	=284	=284	=284	=284	=284	=284
8GG/L	8G\L	.	4f/ 4a-	.	4ff\ 4aa-	.
8AA-/	8A-\	.	.	.	.	.
8BB-/	8B-\	.	4f/ 4a-	.	4ff\ 4aa-	.
8C/	8c\	.	.	.	.	.
8D-X/	8d-X\	.	4a-/	.	4ff\ 4aa-	[[
*	*	*	*Xped	*	*	*
8E-/J	8e-\J	[	.	.	.	.
!LO:LB:g=original	!LO:LB:g=original	!	!	!	!	!
=285	=285	=285	=285	=285	=285	=285
*Xped	*	*	*	*	*	*
4F'\)	4f'\)	sf	4a-'/	.	4ff'\ 4aa-	ff
2r	2r	.	4r	.	4r	.
.	.	.	4r	.	4r	.
=286	=286	=286	=286	=286	=286	=286
!	!LO:TX:b:t=3	!	!	!	!LO:TX:b:t=3	!
2.r	2.r	.	2.r	.	2.r	.
=287	=287	=287	=287	=287	=287	=287
2.r	2.r	.	2.r	.	2.r	.
=288	=288	=288	=288	=288	=288	=288
2.r	2.r	.	2.r	.	2.r	.
*	*clefG2	*	*	*	*	*
=289	=289	=289	=289	=289	=289	=289
*	*clefG2	*	*	*	*	*
!	!LO:TX:a:B:t=Più lento.	!	!	!	!	!
!	!LO:N:cue	!	!	!	!	!
2.r	4r	.	4r	.	4r	.
!	!LO:N:cue	!	!	!	!	!
.	4r	.	4r	.	4r	.
!	!LO:N:cue	!	!	!	!LO:TX:a:B:t=Più lento.	!
.	8.r	.	8.r	.	8.r	.
!	!LO:N:cue	!	!	!	!	!
.	(<16A/	.	(16A-/	.	16a-/	<
=290	=290	=290	=290	=290	=290	=290
*ped	*	*	*ped	*	*	*
!	!LO:N:cue	!	!	!	!LO:TX:b:i:t=espress.	!
2.r	2.a-)	.	[2.a-^>/)	.	[2.aa-^\	[[
*	*clefF4	*	*	*	*	*
!LO:LB:g=original	!LO:LB:g=original	!	!LO:LB:g=original	!	!LO:LB:g=original	!
=291	=291	=291	=291	=291	=291	=291
4GGG/ 4GG	4F\ 4Bn 4e-	.	(4a-/]	.	(>4aa-\]	>
4r	4r	.	4g/	.	4gg\	.
*Xped	*	*	*Xped	*	*	*
4r	4r	.	4f/	.	4ff\	.
=292	=292	=292	=292	=292	=292	=292
!	!LO:TX:b:t=6	!	!	!	!	!
0.r	0.r	.	4d^>/	.	4dd^>\	.
.	.	.	4Bn/	.	4bn\	.
.	.	.	4A-/	.	4a-/	]
=293	=293	=293	=293	=293	=293	=293
.	.	.	2G/	.	2g/	p
.	.	.	8B-X/L	.	8b-X/L	.
.	.	.	8A-/J	.	8a-/J	.
=294	=294	=294	=294	=294	=294	=294
*	*	*	*ped	*	*	*
.	.	.	[2.G/)	.	[2.g/)	.
=295	=295	=295	=295	=295	=295	=295
.	.	.	2.G/]	.	2.g/]	.
=296	=296	=296	=296	=296	=296	=296
1.r	1.r	.	(<[<2G/	.	(>[>2g/	.
.	.	.	8.G/L]	.	8.g\L]	.
*	*	*	*Xped	*	*	*
.	.	.	16g/Jk)	.	16gg\Jk)	.
=297	=297	=297	=297	=297	=297	=297
*	*	*	*ped	*	*	*
!	!	!	!	!	!LO:TX:b:t=cresc._ _ _:problem:ext=ud:dynamics with extention lines	!LO:HP:t=cresc._ _ _:ext=ud
.	.	.	(<[<2.g/	.	(>[>2.gg\	<
=298	=298	=298	=298	=298	=298	=298
4CC/ 4C	4G\ 4c 4e-	p	2g/_	.	2gg\_	.
4r	4r	.	.	.	.	.
4r	4r	.	8.g/L]	.	8.gg\L]	.
*	*	*	*Xped	*	*	*
.	.	.	16a-/Jk	.	16aa-\Jk	.
=299	=299	=299	=299	=299	=299	=299
*ped	*	*	*ped	*	*	*
!	!LO:TX:b:t=1	!	!	!	!	!
2.r	2.r	.	[2.an/)	.	[2.aan\)	[
!LO:LB:g=original	!LO:LB:g=original	!	!LO:LB:g=original	!	!LO:LB:g=original	!
=300	=300	=300	=300	=300	=300	=300
4CC/ 4C	4G\ 4c 4e-	mf	(2anX/_<	.	(>2aanX\_	<
4r	4r	.	.	.	.	.
4r	4r	.	8.a/L]	.	8.aa\L]	.
*	*	*	*Xped	*	*	*
.	.	.	16b-/Jk	.	16bb-\Jk	.
=301	=301	=301	=301	=301	=301	=301
!	!LO:TX:b:t=3	!	!	!	!	!
1.r	1.r	.	4bn'/)	.	4bbn'\)	[
.	.	.	4r	.	4r	.
.	.	.	4r	.	4r	.
=302	=302	=302	=302	=302	=302	=302
*	*	*	*ped	*	*	*
.	.	.	[2.cc^>\	.	[2.ccc^>\	sf >
=303	=303	=303	=303	=303	=303	=303
2.r	2.r	.	2.cc\]	.	2.ccc\]	]]
=304	=304	=304	=304	=304	=304	=304
*ped	*	*	*	*	*	*
(4GGG'/ 4GG	(4E-'\ 4G 4c	.	(<4g'/ 4cc	.	(>4ee-'\ 4ccc	p
4r	4r	.	4r	.	4r	.
4r	4r	.	4r	.	4r	.
=305	=305	=305	=305	=305	=305	=305
4CCC'/) 4CC	4E-'\) 4G 4c	.	4g'/) 4cc	.	4ee-'\) 4ccc	.
8r	4r	.	4r	.	4r	.
8r	.	.	.	.	.	.
4r	4r	.	4r	.	4r	.
=306	=306	=306	=306	=306	=306	=306
!	!LO:TX:b:t=1	!	!	!	!LO:TX:b:t=1	!
2.r	2.r	.	2.r	.	2.r	.
=307	=307	=307	=307	=307	=307	=307
4CCC/ 4CC	4E-\ 4G 4c	pp	4g/ 4cc	.	4ee-\ 4ccc	pp
4r	4r	.	4r	.	4r	.
4r	4r	.	4r	.	4r	.
=308	=308	=308	=308	=308	=308	=308
!	!LO:TX:b:t=1	!	!	!	!LO:TX:b:t=1	!
2.r	2.r	.	2.r	.	2.r	.
=309	=309	=309	=309	=309	=309	=309
2.CCC;>/ 2.CC	2.C;>/	.	2.c;>/	.	2.r;>	.
*Xped	*	*	*Xped	*	*	*
==	==	==	==	==	==	==
*-	*-	*-	*-	*-	*-	*-
!!!system-decoration: {(s1,s2)}{(s3,s4)}
!!!RDF**kern: < = below
!!!RDF**kern: > = above
!!!RDF**kern: N = linked
!!!ENC: Anastazja Marusiak
!!!END: 2022-01-30
!!!AIN: 2 piano
!!!ENC: Marta Chmielewska
!!!END: 2022-02-11
